!!!!SEGMENT: pl-gd--ms-joh-406--006-001_pekiel-bartlomiej--missa-concertata-la-lom-bardesca-kyrie-eleison.krn
!!!cenid: 16xx:1758
!!!COM: Pękiel, Bartłomiej
!!!COM-rismID: pe30105642
!!!CDT: <1633-~1670
!!!CNT: Polish
!!!OPR: Missa Concertata La Lom Bardesca
!!!OTL: Kyrie eleison
!!!OMV: 001
!!!PDT: 1688
!!!AGN:
!!!SMS-siglum: PL-Gd
!!!SMS-shelfmark: Ms Joh.406
!!!SMS-shelfwork: 006-001 M
!!!SMS-variant: Baſso Continuo pro Organo: PL-Gd Ms Joh.406:99
!!!SMS-altvar: [directorium]: PL-Gd Ms Joh.406:102
!!!NIFC-rismSourceID: 305000453
!!!NIFC-islandoraID: pl-gd:36565
!!!URL-pdf-islandora: https://repozytorium.nifc.pl/islandora/object/pl-gd:36565/datastream/PDF/view
!!!URL-scan: https://polish.musicsources.pl/pl/lokalizacje/galeria/rekopisy/5611 @EN{Scan on Polish Music Sources Website} @PL{Skany w portalu Dziedzictwo Muzyki Polskiej w otwartym dostępie}
!!!ONB-nifc: UWAGA: części Mszy: 1. Kyrie eleison, 2. Et in terra pax. Partie: tyt. - 96-98, Basso Continuo pro Organo – 99, Soprano Chori 1 – 101-102, ?[directorium wg RISM] – 102-103, Violino 1 – 103-104, Violino 2 – 104-105, Viola 1ma ad Placitum – 105-106, Viola 2da ad Placitum – 106-107, Cornettino 1 ad placitum – 107-108, Cornettino 2 ad placitum - 108-109
!!!AIN: 2 alto 2 bass 2 cornt 1 org 2 soprn 2 tenor 2 viola 2 violn
!!!key:
**kern	**fba	**kern	**kern	**kern	**kern	**kern	**kern	**kern	**kern	**kern	**kern	**kern	**kern	**text	**kern	**kern
*	*	*	*	*	*	*group2	*group2	*group2	*group2	*group1	*group1	*group1	*group1	*	*	*
*part15	*part15	*part14	*part31	*part12	*part11	*part10	*part9	*part8	*part7	*part6	*part5	*part4	*part3	*part3	*part2	*part1
*staff15	*	*staff14	*staff13	*staff12	*staff11	*staff10	*staff9	*staff8	*staff7	*staff6	*staff5	*staff4	*staff3	*staff3	*staff2	*staff1
*I"Baſso Continuo pro Organo	*	*I"Viola 2da. ad Placitum.	*I"Viola 1ma. ad Placitum.	*I"Violino 2.	*I"Violino 1	*I"[Basso II]	*I"[Tenore II]	*I"[Alto II]	*I"[Soprano II]	*I"[Basso I]	*I"[Tenore I]	*I"[Alto I]	*I"Soprano Chori 1.	*	*I"Cornettino 2. ad placitum	*I"Cornettino I. ad placitum
*I'org	*	*I'vla 2	*I'vla 1	*I'vl 2	*I'vl 1	*I'Coro B 2	*I'Coro T 2	*I'Coro A 2	*I'Coro S 2	*I'Coro B 1	*I'Coro T 1	*I'Coro A 1	*I'Coro S 1	*	*I'kornettino 2	*I'kornettino 1
*Iorg	*	*Iviola	*Iviola	*Ivioln	*Ivioln	*Ibass	*Itenor	*Ialto	*Isoprn	*Ibass	*Itenor	*Ialto	*Isoprn	*	*Icornt	*Icornt
*ICklav	*	*ICstr	*ICstr	*ICstr	*ICstr	*ICvox	*ICvox	*ICvox	*ICvox	*ICvox	*ICvox	*ICvox	*ICvox	*	*ICbras	*ICbras
*IGcont	*	*	*	*	*	*IGcoro	*IGcoro	*IGcoro	*IGcoro	*IGcoro	*IGcoro	*IGcoro	*IGcoro	*	*	*
*clefF4	*	*clefC4	*clefC3	*clefG2	*clefG2	*	*	*	*	*	*	*	*clefC1	*	*clefG2	*clefG2
*k[]	*	*k[]	*k[]	*k[]	*k[]	*	*	*	*	*	*	*	*k[]	*	*k[]	*k[]
*D:	*	*D:	*D:	*D:	*D:	*	*	*	*	*	*	*	*D:	*	*D:	*D:
*M2/1	*	*M2/1	*M2/1	*M2/1	*M2/1	*	*	*	*	*	*	*	*M2/1	*	*M2/1	*M2/1
*met(C)	*	*met(C)	*met(C)	*met(C)	*met(C)	*	*	*	*	*	*	*	*met(C)	*	*met(C)	*met(C)
=1-	=1-	=1-	=1-	=1-	=1-	=1-	=1-	=1-	=1-	=1-	=1-	=1-	=1-	=1-	=1-	=1-
*	*	*2\right	*2\right	*	*	*	*	*	*	*	*	*	*2\right	*	*	*
!	!	!	!	!	!	!LO:TX:t=P:problem=zgodnie z RISM other parts missing	!LO:TX:t=P:problem=zgodnie z RISM other parts missing	!LO:TX:t=P:problem=zgodnie z RISM other parts missing	!LO:TX:t=P:problem=zgodnie z RISM other parts missing	!LO:TX:t=P:problem=zgodnie z RISM other parts missing	!LO:TX:t=P:problem=zgodnie z RISM other parts missing	!LO:TX:t=P:problem=zgodnie z RISM other parts missing	!LO:TX:a:t=Solo	!	!	!
!LO:TX:b:t=Sop&colon; ē Tromboni	!	!	!	!LO:TX:a:t=9	!LO:TX:a:t=9	!	!	!	!	!	!	!	!	!	!LO:TX:a:t=9	!LO:TX:a:t=9.
1D	#	2.d\	2.f#X\	00r	00r	0ryy	0ryy	0ryy	0ryy	0ryy	0ryy	0ryy	2.a\	Kÿ-	00r	00r
.	.	8d\L	8f#\L	.	.	.	.	.	.	.	.	.	8a\	-ri-	.	.
!	!	!LO:TX:t=P:problem=kreska pseudotaktowa	!LO:TX:t=P:problem=kreska pseudotaktowa	!	!	!	!	!	!	!	!	!	!LO:TX:t=P:problem=kreska pseudotaktowa	!	!	!
.	.	8d\J	8f#\J	.	.	.	.	.	.	.	.	.	8g/	-e	.	.
!LO:TX:t=P:problem=kreska pseudotaktowa	!	!	!	!	!	!	!	!	!	!	!	!	!	!	!	!
1GG	.	4.d\	4.g\	.	.	.	.	.	.	.	.	.	4.b\	e-	.	.
.	.	8d\	8g\	.	.	.	.	.	.	.	.	.	8b\	-lei-	.	.
!	!	!LO:TX:t=P:problem=kreska pseudotaktowa	!LO:TX:t=P:problem=kreska pseudotaktowa	!	!	!	!	!	!	!	!	!	!LO:TX:t=P:problem=kreska pseudotaktowa	!	!	!
.	.	2d\	2g\	.	.	.	.	.	.	.	.	.	2b\	-ſon,	.	.
=2-	=2-	=2-	=2-	=2-	=2-	=2-	=2-	=2-	=2-	=2-	=2-	=2-	=2-	=2-	=2-	=2-
*	*	*	*	*	*	*	*	*	*	*	*	*	*	*ij	*	*
1E	#	4r	2.g#X\	.	.	0ryy	0ryy	0ryy	0ryy	0ryy	0ryy	0ryy	2.b\	Kÿ-	.	.
.	.	4d\	.	.	.	.	.	.	.	.	.	.	.	.	.	.
.	.	2e\	.	.	.	.	.	.	.	.	.	.	.	.	.	.
.	.	.	8g#\L	.	.	.	.	.	.	.	.	.	8b\	-ri-	.	.
!	!	!	!LO:TX:t=P:problem=kreska pseudotaktowa	!	!	!	!	!	!	!	!	!	!LO:TX:t=P:problem=kreska pseudotaktowa	!	!	!
.	.	.	8g#\J	.	.	.	.	.	.	.	.	.	8a\	-e	.	.
!LO:TX:t=P:problem=kreska pseudotaktowa	!	!LO:TX:t=P:problem=kreska pseudotaktowa	!	!	!	!	!	!	!	!	!	!	!	!	!	!
1AA	#	1e	4.a\	.	.	.	.	.	.	.	.	.	4.cc#X\	e-	.	.
.	.	.	8a\	.	.	.	.	.	.	.	.	.	8cc#\	-lei-	.	.
!	!	!	!LO:TX:t=P:problem=kreska pseudotaktowa	!	!	!	!	!	!	!	!	!	!LO:TX:t=P:problem=kreska pseudotaktowa	!	!	!
.	.	.	2a\	.	.	.	.	.	.	.	.	.	2cc#\	-ſon,	.	.
*	*	*	*	*	*	*	*	*	*	*	*	*	*	*Xij	*	*
=3-	=3-	=3-	=3-	=3-	=3-	=3-	=3-	=3-	=3-	=3-	=3-	=3-	=3-	=3-	=3-	=3-
2AA/	#	4r	4r	00r	00r	0ryy	0ryy	0ryy	0ryy	0ryy	0ryy	0ryy	4r	.	00r	00r
.	.	4e\	8a\L	.	.	.	.	.	.	.	.	.	8cc#X\	Kÿ-	.	.
.	.	.	8gny\J	.	.	.	.	.	.	.	.	.	8b\	-ri-	.	.
!	!	!	!LO:TX:t=P:problem=kreska pseudotaktowa	!	!	!	!	!	!	!	!	!	!	!	!	!
4D/	#	4.d\	2f#X\	.	.	.	.	.	.	.	.	.	4dd\	-e	.	.
!LO:TX:t=P:problem=kreska pseudotaktowa	!	!	!	!	!	!	!	!	!	!	!	!	!LO:TX:t=P:problem=kreska pseudotaktowa, między nutą a kropką	!	!	!
4BB/	#	.	.	.	.	.	.	.	.	.	.	.	4.dd\	Kÿ-	.	.
!	!	!LO:TX:t=P:problem=kreska pseudotaktowa	!	!	!	!	!	!	!	!	!	!	!	!	!	!
.	.	8c\	.	.	.	.	.	.	.	.	.	.	.	.	.	.
4E\	7 #	4B\	4g#X\	.	.	.	.	.	.	.	.	.	.	.	.	.
.	.	.	.	.	.	.	.	.	.	.	.	.	8ccny\	-ri-	.	.
4AA/	-	8A/L	2a\	.	.	.	.	.	.	.	.	.	(2cc\	-e	.	.
.	.	8G/J	.	.	.	.	.	.	.	.	.	.	.	.	.	.
4D\	7 #	4F#X/	.	.	.	.	.	.	.	.	.	.	.	.	.	.
!LO:TX:t=P:problem=kreska pseudotaktowa	!	!	!LO:TX:t=P:problem=przekreślona synkopowana wartość	!	!	!	!	!	!	!	!	!	!LO:TX:t=P:problem=przekreślona synkopowana wartość	!	!	!
4GG/	-	8G/L	2gny\	.	.	.	.	.	.	.	.	.	2b-X\)	.	.	.
!	!	!LO:TX:t=P:problem=kreska pseudotaktowa	!	!	!	!	!	!	!	!	!	!	!	!	!	!
.	.	8Fny/J	.	.	.	.	.	.	.	.	.	.	.	.	.	.
=4-	=4-	=4-	=4-	=4-	=4-	=4-	=4-	=4-	=4-	=4-	=4-	=4-	=4-	=4-	=4-	=4-
4C/	7	4E/	.	.	.	0ryy	0ryy	0ryy	0ryy	0ryy	0ryy	0ryy	.	.	.	.
4FF/	.	4.F/	8fny\L	.	.	.	.	.	.	.	.	.	4.a\	.	.	.
.	.	.	8e\J	.	.	.	.	.	.	.	.	.	.	.	.	.
4BB-X/	.	.	4d\	.	.	.	.	.	.	.	.	.	.	.	.	.
.	.	8D/	.	.	.	.	.	.	.	.	.	.	8g/	.	.	.
!LO:SIC:v:s=4GG	!	!	!	!	!	!	!	!	!	!	!	!	!	!	!	!
!LO:TX:t=P:problem=kreska pseudotaktowa	!	!LO:TX:t=P:problem=kreska pseudotaktowa	!	!	!	!	!	!	!	!	!	!	!	!	!	!
4GG-X/	6 5	4B-X\	8e\L	.	.	.	.	.	.	.	.	.	2g/	e-	.	.
!	!	!	!LO:TX:t=P:problem=kreska pseudotaktowa	!	!	!	!	!	!	!	!	!	!	!	!	!
.	.	.	8d\J	.	.	.	.	.	.	.	.	.	.	.	.	.
*	*	*	*custos:c	*	*	*	*	*	*	*	*	*	*	*	*	*
!	!	!	!LO:LB:g=original	!	!	!	!	!	!	!	!	!	!	!	!	!
4AA/	7	1A	8c/L	.	.	.	.	.	.	.	.	.	.	.	.	.
.	.	.	8A/J	.	.	.	.	.	.	.	.	.	.	.	.	.
4D/	-	.	2d\	.	.	.	.	.	.	.	.	.	4f/	-lei-	.	.
!LO:TX:t=P:problem=kreska pseudotaktowa	!	!	!	!	!	!	!	!	!	!	!	!	!LO:TX:t=P:problem=kreska pseudotaktowa	!	!	!
2AA/	4	.	.	.	.	.	.	.	.	.	.	.	2e/	.	.	.
.	3 #	.	4c#X/	.	.	.	.	.	.	.	.	.	.	.	.	.
!	!	!	!	!	!	!	!	!	!	!	!	!	!LO:LB:g=original	!	!	!
=5-	=5-	=5-	=5-	=5-	=5-	=5-	=5-	=5-	=5-	=5-	=5-	=5-	=5-	=5-	=5-	=5-
!	!	!LO:TX:t=P:problem=kreska pseudotaktowa	!LO:TX:t=P:problem=kreska pseudotaktowa	!	!	!	!	!	!	!	!	!	!LO:TX:t=P:problem=kreska pseudotaktowa	!	!	!
1D	#	1A	1d	1r	1r	0ryy	0ryy	0ryy	0ryy	0ryy	0ryy	0ryy	1d	-ſon,	1r	1r
*	*	*	*	*	*2\right	*	*	*	*	*	*	*	*	*	*	*2\right
!LO:TX:t=P:problem=kreska pseudotaktowa	!	!	!	!	!	!	!	!	!	!	!	!	!	!	!	!
!LO:TX:b:t=tutti.	!	!LO:TX:b:t=tutti	!	!	!	!	!	!	!	!	!	!	!	!	!	!
1D	#	2.d\	2.f#X\	2.a/	2.dd\	.	.	.	.	.	.	.	2.dd\	Kÿ-	2.a/	2.dd\
!	!	!	!	!	!LO:TX:t=P:problem=kreska pseudotaktowa	!	!	!	!	!	!	!	!	!	!	!LO:TX:t=P:problem=kreska pseudotaktowa
.	.	8d\L	8f#\L	8a\L	4dd\	.	.	.	.	.	.	.	8dd\	-ri-	8a\L	4dd\
!	!	!LO:TX:t=P:problem=kreska pseudotaktowa	!	!LO:TX:t=P:problem=kreska pseudotaktowa	!	!	!	!	!	!	!	!	!LO:TX:t=P:problem=kreska pseudotaktowa	!	!LO:TX:t=P:problem=kreska pseudotaktowa	!
.	.	8A\J	8f#\J	8dd\J	.	.	.	.	.	.	.	.	8dd\	-e	8dd\J	.
=6-	=6-	=6-	=6-	=6-	=6-	=6-	=6-	=6-	=6-	=6-	=6-	=6-	=6-	=6-	=6-	=6-
!	!	!	!LO:TX:t=P:problem=kreska pseudotaktowa	!	!	!	!	!	!	!	!	!	!	!	!	!LO:TX:t=P:problem=kreska pseudotaktowa
1GGny	.	4.G/	1d	4.b/	1dd	0ryy	0ryy	0ryy	0ryy	0ryy	0ryy	0ryy	4dd\	e-	4.b/	1dd
.	.	.	.	.	.	.	.	.	.	.	.	.	4dd\	-lei-	.	.
.	.	8G/	.	8b/	.	.	.	.	.	.	.	.	.	.	8b/	.
!	!	!LO:TX:t=P:problem=kreska pseudotaktowa	!	!LO:TX:t=P:problem=kreska pseudotaktowa	!	!	!	!	!	!	!	!	!LO:TX:t=P:problem=kreska pseudotaktowa	!	!LO:TX:t=P:problem=kreska pseudotaktowa	!
.	.	2G/	.	2b/	.	.	.	.	.	.	.	.	2dd\	ſon,	2b/	.
!	!	!LO:LB:g=original	!	!	!	!	!	!	!	!	!	!	!	!	!	!
4r	.	4r	4r	4r	4r	.	.	.	.	.	.	.	4r	.	4r	4r
*2\right	*	*	*	*	*	*	*	*	*	*	*	*	*	*ij	*	*
2E\	#	2e\	2g#X\	2b/	2gg#X\	.	.	.	.	.	.	.	2g#X/	Kÿ-	2b/	2gg#X\
!LO:TX:t=P:problem=kreska pseudotaktowa	!	!LO:TX:t=P:problem=kreska pseudotaktowa	!LO:TX:t=P:problem=kreska pseudotaktowa	!	!LO:TX:t=P:problem=kreska pseudotaktowa	!	!	!	!	!	!	!	!	!	!	!LO:TX:t=P:problem=kreska pseudotaktowa
4E\	.	4e\	4g#\	8b/L	4gg#\	.	.	.	.	.	.	.	8g#X/	-ri-	8b/L	4gg#\
!	!	!	!	!LO:TX:t=P:problem=kreska pseudotaktowa	!	!	!	!	!	!	!	!	!LO:TX:t=P:problem=kreska pseudotaktowa	!	!LO:TX:t=P:problem=kreska pseudotaktowa	!
.	.	.	.	8b/J	.	.	.	.	.	.	.	.	8g#X/	-e	8b/J	.
=7-	=7-	=7-	=7-	=7-	=7-	=7-	=7-	=7-	=7-	=7-	=7-	=7-	=7-	=7-	=7-	=7-
!	!	!	!	!LO:SIC:v:s=1a	!	!	!	!	!	!	!	!	!	!	!LO:SIC:v:s=1a	!
!LO:TX:t=P:problem=kreska pseudotaktowa	!	!	!	!LO:TX:t=P:problem=kreska pseudotaktowa	!	!	!	!	!	!	!	!	!	!	!LO:TX:t=P:problem=kreska pseudotaktowa	!LO:TX:t=P:problem=kreska pseudotaktowa
1AA	.	[2c#X\	1e	1b	1aa	0ryy	0ryy	0ryy	0ryy	0ryy	0ryy	0ryy	4.a\	e-	1b	1aa
.	.	.	.	.	.	.	.	.	.	.	.	.	8a\	-lei-	.	.
!	!	!LO:TX:t=P:problem=kreska pseudotaktowa	!	!	!	!	!	!	!	!	!	!	!LO:TX:t=P:problem=kreska pseudotaktowa	!	!	!
.	.	2c#]	.	.	.	.	.	.	.	.	.	.	2a\	-ſon,	.	.
*	*	*	*	*	*	*	*	*	*	*	*	*	*	*Xij	*	*
4r	.	4r	4r	4r	4r	.	.	.	.	.	.	.	4r	.	4r	4r
4AA/	#	4c#X\	2a\	4ee\	8ee\L	.	.	.	.	.	.	.	8ee\	Kÿ-	4ee\	8ee\L
.	.	.	.	.	8a\J	.	.	.	.	.	.	.	8a\	-ri-	.	8a\J
*	*	*	*	*2\right	*	*	*	*	*	*	*	*	*	*	*2\right	*
!	!	!	!	!LO:TX:t=P:problem=kreska pseudotaktowa	!	!	!	!	!	!	!	!	!	!	!LO:TX:t=P:problem=kreska pseudotaktowa	!
4D\	#	4A/	.	2ff#X\	4a/	.	.	.	.	.	.	.	4a\	-e	2ff#X\	4a/
!LO:TX:t=P:problem=kreska pseudotaktowa	!	!LO:TX:t=P:problem=kreska pseudotaktowa	!LO:TX:t=P:problem=kreska pseudotaktowa	!	!LO:TX:t=P:problem=przekreślona synkopowana wartość	!	!	!	!	!	!	!	!LO:TX:t=P:problem=przekreślona synkopowana wartość	!	!	!LO:TX:t=P:problem=przekreślona synkopowana wartość
4BBny/	#	4d\	4d\	.	2b/	.	.	.	.	.	.	.	2bny\	Kÿ-	.	2a/
!LO:LB:g=original	!	!	!	!	!	!	!	!	!	!	!	!	!	!	!	!
=8-	=8-	=8-	=8-	=8-	=8-	=8-	=8-	=8-	=8-	=8-	=8-	=8-	=8-	=8-	=8-	=8-
!	!	!	!	!LO:TX:t=P:problem=mixed beam	!	!	!	!	!	!	!	!	!	!	!LO:TX:t=P:problem=mixed beam	!
4E\	#	4Bny\	2e\	8gg#X\L	.	0ryy	0ryy	0ryy	0ryy	0ryy	0ryy	0ryy	.	.	8gg#X\L	.
!	!	!	!	!LO:SIC:v:s=8g#J	!	!	!	!	!	!	!	!	!	!	!LO:SIC:v:s=8g#\J	!
.	.	.	.	8g\J	.	.	.	.	.	.	.	.	.	.	8g/J	.
4AA/	7	4cny\	.	8cc\L	2a/	.	.	.	.	.	.	.	2a\	-ri-	8cc\L	2a/
.	.	.	.	8b\J	.	.	.	.	.	.	.	.	.	.	8b\J	.
!	!	!LO:TX:t=P:problem=kreska pseudotaktowa	!	!	!	!	!	!	!	!	!	!	!	!	!	!
4D\	7 #	2d\	4f#X\	8a/L	.	.	.	.	.	.	.	.	.	.	8a/L	.
!	!	!	!	!LO:SIC:v:s=8f#J	!	!	!	!	!	!	!	!	!	!	!LO:SIC:v:s=8f#/J	!
.	.	.	.	8g/J	.	.	.	.	.	.	.	.	.	.	8g/J	.
!LO:TX:t=P:problem=kreska pseudotaktowa	!	!	!LO:TX:t=P:problem=przekreślona synkopowana wartość	!	!LO:TX:t=P:problem=przekreślona synkopowana wartość	!	!	!	!	!	!	!	!LO:TX:t=P:problem=przekreślona synkopowana wartość	!	!	!LO:TX:t=P:problem=przekreślona synkopowana wartość
4GG/	-	.	2gny\	8dd\L	2g/	.	.	.	.	.	.	.	2gny/	-e	8dd\L	2g/
!	!	!	!	!LO:TX:t=P:problem=kreska pseudotaktowa	!	!	!	!	!	!	!	!	!	!	!LO:TX:t=P:problem=kreska pseudotaktowa	!
.	.	.	.	8cc\J	.	.	.	.	.	.	.	.	.	.	8cc\J	.
*	*	*	*	*	*	*	*	*	*	*	*	*	*	*	*custos:b	*
!	!	!	!	!	!	!	!	!	!	!	!	!	!	!	!LO:LB:g=original	!
4C/	7	4e\	.	8b-X/L	.	.	.	.	.	.	.	.	.	.	8b-X/L	.
.	.	.	.	8a/	.	.	.	.	.	.	.	.	.	.	8a/	.
4FF/	.	4c/	2fny\	8g/	4a/	.	.	.	.	.	.	.	4a\	e-	8g/	4a/
.	.	.	.	8e/J	.	.	.	.	.	.	.	.	.	.	8e/J	.
4BB-X/	7	4.d/	.	4a/	4f/	.	.	.	.	.	.	.	4f/	.	4a/	4f/
!LO:TX:t=P:problem=kreska pseudotaktowa	!	!	!LO:TX:t=P:problem=kreska pseudotaktowa	!LO:TX:t=P:problem=kreska pseudotaktowa	!LO:TX:t=P:problem=kreska pseudotaktowa	!	!	!	!	!	!	!	!	!	!LO:TX:t=P:problem=kreska pseudotaktowa	!LO:TX:t=P:problem=kreska pseudotaktowa
4GG/	-	.	4g\	4d/	4b-X/	.	.	.	.	.	.	.	8.b-X\	.	4d/	4b-X/
!	!	!LO:TX:t=P:problem=kreska pseudotaktowa	!	!	!	!	!	!	!	!	!	!	!	!	!	!
.	.	8G/	.	.	.	.	.	.	.	.	.	.	.	.	.	.
!	!	!	!	!	!	!	!	!	!	!	!	!	!LO:TX:t=P:problem=kreska pseudotaktowa	!	!	!
.	.	.	.	.	.	.	.	.	.	.	.	.	16b-\	-lei-	.	.
=9-	=9-	=9-	=9-	=9-	=9-	=9-	=9-	=9-	=9-	=9-	=9-	=9-	=9-	=9-	=9-	=9-
!	!	!	!	!LO:TX:t=P:problem=kreska pseudotaktowa	!	!	!	!	!	!	!	!	!	!	!	!
4AA/	#	4C#X/	4e\	0a;	4e/	0ryy	0ryy	0ryy	0ryy	0ryy	0ryy	0ryy	4e/	-ſon	0a;	4e/
4D/	6	8F/L	4f\	.	4.a/	.	.	.	.	.	.	.	4a\	e-	.	4.a/
.	.	8D/J	.	.	.	.	.	.	.	.	.	.	.	.	.	.
2AA/	4	4.E/	2a\	.	.	.	.	.	.	.	.	.	2a\	-lei-	.	.
.	3 #	.	.	.	8a/	.	.	.	.	.	.	.	.	.	.	8a/
!	!	!	!	!	!	!	!	!	!	!	!	!	!	!	!	!LO:TX:t=P:problem=kreska pseudotaktowa
.	.	.	.	.	4aa\	.	.	.	.	.	.	.	.	.	.	4aa\
!	!	!LO:TX:t=P:problem=kreska pseudotaktowa	!	!	!	!	!	!	!	!	!	!	!	!	!	!
.	.	8E/	.	.	.	.	.	.	.	.	.	.	.	.	.	.
1D;;	#	1D;	1f#X;	.	1aa;<	.	.	.	.	.	.	.	1a;	-ſon	.	1aa;
*	*	*	*	*	*	*	*	*	*	*	*	*	*	*	*	*custos:a
!	!	!	!	!LO:LB:g=original	!	!	!	!	!	!	!	!	!LO:LB:g=original	!	!	!LO:LB:g=original
=10||	=10||	=10||	=10||	=10||	=10||	=10||	=10||	=10||	=10||	=10||	=10||	=10||	=10||	=10||	=10||	=10||
!	!	!LO:TX:b:t=Christe	!LO:TX:b:t=Christe	!	!	!	!	!	!	!	!	!	!	!	!	!
!LO:TX:b:t=Baſ&colon; e viol\nChriste	!	!LO:TX:a:t=4	!LO:TX:a:t=4	!LO:TX:b:t=Christe	!LO:TX:b:t=Christe.	!	!	!	!	!	!	!	!LO:TX:a:t=8	!	!LO:TX:b:t=Chriſte	!LO:TX:b:t=Christe.
1D	5 #	00r	00r	2.f#X/	4.a/	0ryy	0ryy	0ryy	0ryy	0ryy	0ryy	0ryy	00r	.	2.f#X/	4.a/
.	.	.	.	.	8g/	.	.	.	.	.	.	.	.	.	.	8g/
!	!	!	!	!	!LO:TX:t=P:problem=kreska pseudotaktowa, między nutą a kropką	!	!	!	!	!	!	!	!	!	!	!LO:TX:t=P:problem=kreska pseudotaktowa, między nutą a kropką
.	6	.	.	.	2.b/	.	.	.	.	.	.	.	.	.	.	2.b/
.	.	.	.	8f#/L	.	.	.	.	.	.	.	.	.	.	8f#/L	.
!	!	!	!	!LO:TX:t=P:problem=kreska pseudotaktowa	!	!	!	!	!	!	!	!	!	!	!LO:TX:t=P:problem=kreska pseudotaktowa	!
.	.	.	.	8e/J	.	.	.	.	.	.	.	.	.	.	8e/J	.
!LO:TX:t=P:problem=kreska pseudotaktowa	!	!	!	!	!	!	!	!	!	!	!	!	!	!	!	!
1E	# 5	.	.	4.g#X/	.	.	.	.	.	.	.	.	.	.	4.g#X/	.
.	.	.	.	.	8b/L	.	.	.	.	.	.	.	.	.	.	8b/L
.	.	.	.	8g#/	8a/J	.	.	.	.	.	.	.	.	.	8g#/	8a/J
!	!	!	!	!	!LO:TX:t=P:problem=kreska pseudotaktowa	!	!	!	!	!	!	!	!	!	!	!LO:TX:t=P:problem=kreska pseudotaktowa
.	6	.	.	4.g#/	2cc#X\	.	.	.	.	.	.	.	.	.	4.g#/	2cc#X\
!	!	!	!	!LO:SIC:v:s=8f#/	!	!	!	!	!	!	!	!	!	!	!LO:SIC:v:s=8f#/	!
!	!	!	!	!LO:TX:t=P:problem=kreska pseudotaktowa	!	!	!	!	!	!	!	!	!	!	!LO:TX:t=P:problem=kreska pseudotaktowa	!
.	.	.	.	8e/	.	.	.	.	.	.	.	.	.	.	8fny/	.
!	!	!	!	!	!LO:LB:g=original	!	!	!	!	!	!	!	!	!	!	!
=11-	=11-	=11-	=11-	=11-	=11-	=11-	=11-	=11-	=11-	=11-	=11-	=11-	=11-	=11-	=11-	=11-
4.F#X\	5 #	.	.	4.a/	4.cc#X\	0ryy	0ryy	0ryy	0ryy	0ryy	0ryy	0ryy	.	.	4.a/	4.cc#\
!	!	!	!	!LO:SIC:v:s=8g#	!	!	!	!	!	!	!	!	!	!	!LO:SIC:v:s=8g#/	!
8E\	.	.	.	8gny/	8b/	.	.	.	.	.	.	.	.	.	8gny/	8b/
!	!	!	!	!	!LO:TX:t=P:problem=kreska pseudotaktowa, między nutą a kropką	!	!	!	!	!	!	!	!	!	!	!LO:TX:t=P:problem=kreska pseudotaktowa, między nutą a kropką
8D/L	#	.	.	8f#X/L	2.dd\	.	.	.	.	.	.	.	.	.	8f#X/L	2.dd\
!	!	!	!	!LO:SIC:v:s=16g#L	!	!	!	!	!	!	!	!	!	!	!LO:SIC:v:s=16g#/L	!
8C#X/J	.	.	.	16g/L	.	.	.	.	.	.	.	.	.	.	16g/L	.
.	.	.	.	16a/JJ	.	.	.	.	.	.	.	.	.	.	16a/JJ	.
!LO:N:acc=#	!	!	!	!	!	!	!	!	!	!	!	!	!	!	!	!
!LO:TX:t=P:problem=kreska pseudotaktowa	!	!	!	!	!	!	!	!	!	!	!	!	!	!	!	!
4BBn/	.	.	.	8b/L	.	.	.	.	.	.	.	.	.	.	8b/L	.
!	!	!	!	!LO:SIC:v:s=8aJ	!	!	!	!	!	!	!	!	!	!	!LO:SIC:v:s=8aJ	!
!	!	!	!	!LO:TX:t=P:problem=kreska pseudotaktowa	!	!	!	!	!	!	!	!	!	!	!LO:TX:t=P:problem=kreska pseudotaktowa	!
.	.	.	.	8a#X/J	.	.	.	.	.	.	.	.	.	.	8a#X/J	.
!	!	!	!	!LO:SIC:v:s=8g#L	!	!	!	!	!	!	!	!	!	!	!LO:SIC:v:s=8g#/L	!
4E\	7 #	.	.	8g/L	.	.	.	.	.	.	.	.	.	.	8g/L	.
.	.	.	.	8e/J	.	.	.	.	.	.	.	.	.	.	8e/J	.
4AA/	.	.	.	2any/	4ccny\	.	.	.	.	.	.	.	.	.	2any/	4ccny\
!	!	!	!	!	!	!	!	!	!	!	!	!	!	!	!	!LO:TX:t=P:problem=kreska pseudotaktowa
2E\	x 4	.	.	.	2b/	.	.	.	.	.	.	.	.	.	.	2b/
!	!	!	!	!	!	!	!	!	!	!	!	!	!	!	!LO:TX:t=P:problem=kreska pseudotaktowa	!
.	# 3	.	.	4g#X/	.	.	.	.	.	.	.	.	.	.	4g#X/	.
*	*	*	*	*	*	*	*	*	*	*	*	*	*	*	*custos:a	*
!	!	!	!	!	!	!	!	!	!	!	!	!	!	!	!LO:LB:g=original	!
=12-	=12-	=12-	=12-	=12-	=12-	=12-	=12-	=12-	=12-	=12-	=12-	=12-	=12-	=12-	=12-	=12-
!LO:TX:t=P:problem=kreska pseudotaktowa	!	!	!	!	!	!	!	!	!	!	!	!	!	!	!	!
!LO:TX:b:i:t=Alt.	!	!	!	!	!	!	!	!	!	!	!	!	!	!	!	!LO:TX:t=P:problem=kreska pseudotaktowa
1AA	#	2.A/	2r	1a	1a	0ryy	0ryy	0ryy	0ryy	0ryy	0ryy	0ryy	00r	.	1a	1a
.	.	.	4.c/	.	.	.	.	.	.	.	.	.	.	.	.	.
.	.	4A/	.	.	.	.	.	.	.	.	.	.	.	.	.	.
!	!	!	!LO:TX:t=P:problem=kreska pseudotaktowa	!	!	!	!	!	!	!	!	!	!	!	!	!
.	.	.	8c/	.	.	.	.	.	.	.	.	.	.	.	.	.
!	!	!LO:TX:t=P:problem=kreska pseudotaktowa	!	!LO:TX:a:t=6	!LO:TX:a:t=8	!	!	!	!	!	!	!	!	!	!LO:TX:a:t=6	!LO:TX:a:t=8
1D	#	1A	1d	00r	00r	.	.	.	.	.	.	.	.	.	00r	00r
=13-	=13-	=13-	=13-	=13-	=13-	=13-	=13-	=13-	=13-	=13-	=13-	=13-	=13-	=13-	=13-	=13-
2BB/	#	1.B	2d\	.	.	0ryy	0ryy	0ryy	0ryy	0ryy	0ryy	0ryy	.	.	.	.
!LO:TX:t=P:problem=kreska pseudotaktowa	!	!	!LO:TX:t=P:problem=kreska pseudotaktowa	!	!	!	!	!	!	!	!	!	!	!	!	!
2E\	#	.	2e\	.	.	.	.	.	.	.	.	.	.	.	.	.
!	!	!	!LO:LB:g=original	!	!	!	!	!	!	!	!	!	!	!	!	!
2E\	.	.	[2e\	.	.	.	.	.	.	.	.	.	.	.	.	.
!LO:TX:t=P:problem=kreska pseudotaktowa	!	!	!	!	!	!	!	!	!	!	!	!	!	!	!	!
!LO:TX:b:i:t=Sop.	!	!	!	!	!	!	!	!	!	!	!	!	!	!	!	!
2AA/	#	2A/	2e]	.	.	.	.	.	.	.	.	.	.	.	.	.
!LO:LB:g=original	!	!	!	!	!	!	!	!	!	!	!	!	!	!	!	!
=14-	=14-	=14-	=14-	=14-	=14-	=14-	=14-	=14-	=14-	=14-	=14-	=14-	=14-	=14-	=14-	=14-
!	!	!LO:TX:t=P:problem=kreska pseudotaktowa	!	!	!	!	!	!	!	!	!	!	!	!	!	!
2AA/	#	1A	(2e\	.	.	0ryy	0ryy	0ryy	0ryy	0ryy	0ryy	0ryy	2r	.	.	.
!LO:TX:t=P:problem=kreska pseudotaktowa	!	!	!LO:TX:t=P:problem=kreska pseudotaktowa	!	!	!	!	!	!	!	!	!	!	!	!	!
2D/	.	.	2d\)	.	.	.	.	.	.	.	.	.	8r	.	.	.
.	.	.	.	.	.	.	.	.	.	.	.	.	8f#X/	Chri-	.	.
.	.	.	.	.	.	.	.	.	.	.	.	.	8g/	-ste	.	.
!	!	!	!	!	!	!	!	!	!	!	!	!	!LO:TX:t=P:problem=kreska pseudotaktowa	!	!	!
.	.	.	.	.	.	.	.	.	.	.	.	.	8a\	e-	.	.
!	!	!LO:TX:t=P:problem=kreska pseudotaktowa	!	!	!	!	!	!	!	!	!	!	!	!	!	!LO:TX:t=P:problem=kreska pseudotaktowa
2G\	.	1G	2d\	0r	00r	.	.	.	.	.	.	.	(8b\	-lei-	0r	00r
.	.	.	.	.	.	.	.	.	.	.	.	.	8cc\	.	.	.
.	.	.	.	.	.	.	.	.	.	.	.	.	4dd\)	.	.	.
!	!	!	!	!	!	!	!	!	!	!	!	!	!LO:TX:t=P:problem=kreska pseudotaktowa	!	!	!
2Cny/	.	.	2e\	.	.	.	.	.	.	.	.	.	2g/	-ſon,	.	.
=15-	=15-	=15-	=15-	=15-	=15-	=15-	=15-	=15-	=15-	=15-	=15-	=15-	=15-	=15-	=15-	=15-
!	!	!LO:TX:a:t=2	!LO:TX:a:t=2	!	!	!	!	!	!	!	!	!	!	!	!	!
2Fny\	.	0r	0r	.	.	0ryy	0ryy	0ryy	0ryy	0ryy	0ryy	0ryy	8r	.	.	.
.	.	.	.	.	.	.	.	.	.	.	.	.	8cc\	Chri-	.	.
.	.	.	.	.	.	.	.	.	.	.	.	.	8dd\	-ste	.	.
.	.	.	.	.	.	.	.	.	.	.	.	.	8ee\	e-	.	.
!LO:TX:t=P:problem=kreska pseudotaktowa	!	!	!	!	!	!	!	!	!	!	!	!	!	!	!	!
2D/	.	.	.	.	.	.	.	.	.	.	.	.	(8ff\L	.	.	.
.	.	.	.	.	.	.	.	.	.	.	.	.	8ee\J	.	.	.
!	!	!	!	!	!	!	!	!	!	!	!	!	!LO:TX:t=P:problem=przekreślona synkopowana wartość	!	!	!
.	.	.	.	.	.	.	.	.	.	.	.	.	2dd\	.	.	.
1E	7 3	.	.	2r	.	.	.	.	.	.	.	.	.	.	2r	.
.	6 4 #	.	.	.	.	.	.	.	.	.	.	.	4cc\)	.	.	.
!	!	!	!	!	!	!	!	!	!	!	!	!	!LO:TX:t=P:problem=kreska pseudotaktowa	!	!	!
.	5 3	.	.	4.ee\	.	.	.	.	.	.	.	.	2b\	lei-	4.ee\	.
.	.	.	.	16dd\LL	.	.	.	.	.	.	.	.	.	.	16dd\LL	.
!	!	!	!	!LO:TX:t=P:problem=kreska pseudotaktowa	!	!	!	!	!	!	!	!	!	!	!LO:TX:t=P:problem=kreska pseudotaktowa	!
.	.	.	.	16ee\JJ	.	.	.	.	.	.	.	.	.	.	16ee\JJ	.
!	!	!LO:LB:g=original	!	!	!	!	!	!	!	!	!	!	!	!	!	!
=16-	=16-	=16-	=16-	=16-	=16-	=16-	=16-	=16-	=16-	=16-	=16-	=16-	=16-	=16-	=16-	=16-
!LO:TX:b:t=tutti	!	!	!	!	!	!	!	!	!	!	!	!	!LO:TX:t=P:problem=kreska pseudotaktowa	!	!	!
2AA/	#	4.A/	4c#X/	4.cc#X\	.	0ryy	0ryy	0ryy	0ryy	0ryy	0ryy	0ryy	2a\	-ſon	4.cc#X\	.
.	.	.	8c#\L	.	.	.	.	.	.	.	.	.	.	.	.	.
.	.	16G/LL	8e\J	16b\LL	.	.	.	.	.	.	.	.	.	.	16b\LL	.
.	.	16A/JJ	.	16cc#\JJ	.	.	.	.	.	.	.	.	.	.	16cc#\JJ	.
!LO:TX:t=P:problem=kreska pseudotaktowa	!	!LO:TX:t=P:problem=kreska pseudotaktowa	!	!LO:TX:t=P:problem=kreska pseudotaktowa	!	!	!	!	!	!	!	!	!	!	!LO:TX:t=P:problem=kreska pseudotaktowa	!
2D/	#	2F#X/	4.f#X\	2a/	.	.	.	.	.	.	.	.	2r	.	2a/	.
!	!	!	!LO:TX:t=P:problem=kreska pseudotaktowa	!	!	!	!	!	!	!	!	!	!	!	!	!
.	.	.	8e\	.	.	.	.	.	.	.	.	.	.	.	.	.
!	!	!	!	!	!LO:TX:b:t=Christe	!	!	!	!	!	!	!	!	!	!	!
2GG/	.	8r	2d\	2gny/	4.b/	.	.	.	.	.	.	.	(4.b\	Chri-	2gny/	4.b/
.	.	8B\L	.	.	.	.	.	.	.	.	.	.	.	.	.	.
.	.	8c\	.	.	.	.	.	.	.	.	.	.	.	.	.	.
.	.	8d\J	.	.	8a/	.	.	.	.	.	.	.	8a\)	.	.	8a/
!	!	!	!LO:TX:t=P:problem=kreska pseudotaktowa	!	!LO:TX:t=P:problem=kreska pseudotaktowa	!	!	!	!	!	!	!	!LO:TX:t=P:problem=kreska pseudotaktowa	!	!	!LO:TX:t=P:problem=kreska pseudotaktowa
2EE/	#	4.e\	2r	8r	2g#X/	.	.	.	.	.	.	.	2g#X/	-ste	8r	2g#X/
.	.	.	.	8g#X/L	.	.	.	.	.	.	.	.	.	.	8g#X/L	.
.	.	.	.	8a/	.	.	.	.	.	.	.	.	.	.	8a/	.
!	!	!	!	!LO:TX:t=P:problem=kreska pseudotaktowa	!	!	!	!	!	!	!	!	!	!	!LO:TX:t=P:problem=kreska pseudotaktowa	!
.	.	16d\LL	.	8b/J	.	.	.	.	.	.	.	.	.	.	8b/J	.
!	!	!LO:TX:t=P:problem=kreska pseudotaktowa	!	!	!	!	!	!	!	!	!	!	!	!	!	!
.	.	16e\JJ	.	.	.	.	.	.	.	.	.	.	.	.	.	.
!	!	!	!	!LO:LB:g=original	!	!	!	!	!	!	!	!	!	!	!	!
=17-	=17-	=17-	=17-	=17-	=17-	=17-	=17-	=17-	=17-	=17-	=17-	=17-	=17-	=17-	=17-	=17-
2AA/	#	4c#X\	4.a\	4.cc#X\	2r	0ryy	0ryy	0ryy	0ryy	0ryy	0ryy	0ryy	2r	.	4.cc#X\	2r
.	.	4A/	.	.	.	.	.	.	.	.	.	.	.	.	.	.
.	.	.	16g\LL	8cc#\	.	.	.	.	.	.	.	.	.	.	8cc#\	.
.	.	.	16a\JJ	.	.	.	.	.	.	.	.	.	.	.	.	.
!LO:TX:t=P:problem=kreska pseudotaktowa	!	!	!LO:TX:t=P:problem=przekreślona synkopowana wartość	!LO:TX:t=P:problem=kreska pseudotaktowa	!	!	!	!	!	!	!	!	!	!	!LO:TX:t=P:problem=kreska pseudotaktowa	!
2D/	#	8r	1f#X\	2a/	8r	.	.	.	.	.	.	.	8r	.	2a/	8r
.	.	8F#X/L	.	.	8a\L	.	.	.	.	.	.	.	8a\	Chri-	.	8a\L
.	.	8G/	.	.	8b\	.	.	.	.	.	.	.	8b\	.	.	8b\
!	!	!	!	!	!	!	!	!	!	!	!	!	!LO:TX:t=P:problem=kreska pseudotaktowa	!	!	!
!	!	!LO:TX:t=P:problem=kreska pseudotaktowa	!	!	!LO:TX:t=P:problem=kreska pseudotaktowa	!	!	!	!	!	!	!	!LO:SIC:v:s=8cc#	!	!	!LO:TX:t=P:problem=kreska pseudotaktowa
.	.	8A/J	.	.	8cc#X\J	.	.	.	.	.	.	.	8cc\	.	.	8cc#X\J
!LO:N:acc=#	!	!	!	!	!	!	!	!	!	!	!	!	!	!	!	!LO:TX:t=P:problem=kreska pseudotaktowa
2BBn/	.	2B\	.	2r	2dd\	.	.	.	.	.	.	.	2dd\	-ste	2r	2dd\
*	*	*	*	*	*	*	*	*	*	*	*	*	*	*	*	*custos:b
!LO:TX:t=P:problem=kreska pseudotaktowa	!	!	!LO:TX:t=P:problem=przekreślona synkopowana wartość	!	!	!	!	!	!	!	!	!	!LO:SIC:v:s=4b	!	!	!LO:LB:g=original
2E\	#	8B\L	1e\	4.ee\	4b/	.	.	.	.	.	.	.	4cc\	e-	4.ee\	4b/
.	.	8G#X\	.	.	.	.	.	.	.	.	.	.	.	.	.	.
!	!	!	!	!	!LO:TX:t=P:problem=kreska pseudotaktowa, między nutą a kropką	!	!	!	!	!	!	!	!LO:TX:t=P:problem=kreska pseudotaktowa, między nutą a kropką	!	!	!LO:TX:t=P:problem=kreska pseudotaktowa, między nutą a kropką
.	.	8A\	.	.	4.ee\	.	.	.	.	.	.	.	4.ee\	.	.	4.ee\
!	!	!LO:TX:t=P:problem=kreska pseudotaktowa	!	!	!	!	!	!	!	!	!	!	!	!	!	!
.	.	8B\J	.	16dd\LL	.	.	.	.	.	.	.	.	.	.	16dd\LL	.
!	!	!	!	!LO:TX:t=P:problem=kreska pseudotaktowa	!	!	!	!	!	!	!	!	!	!	!LO:TX:t=P:problem=kreska pseudotaktowa	!
.	.	.	.	16ee\JJ	.	.	.	.	.	.	.	.	.	.	16ee\JJ	.
=18-	=18-	=18-	=18-	=18-	=18-	=18-	=18-	=18-	=18-	=18-	=18-	=18-	=18-	=18-	=18-	=18-
2AA/	-	8cny\L	.	2ccny\	.	0ryy	0ryy	0ryy	0ryy	0ryy	0ryy	0ryy	.	.	2ccny\	.
.	.	8B\	.	.	8dd\L	.	.	.	.	.	.	.	8dd\L	.	.	8dd\L
.	.	8A\	.	.	8ccny\	.	.	.	.	.	.	.	8cc\	.	.	8ccny\
.	.	8Gny\J	.	.	8b\J	.	.	.	.	.	.	.	8b\J	.	.	8b\J
!	!	!	!LO:TX:t=P:problem=kreska pseudotaktowa	!	!	!	!	!	!	!	!	!	!LO:LB:g=original	!	!	!
4D/	.	4F#X/	2d\	2dd\	4a/	.	.	.	.	.	.	.	4a\	.	2dd\	4a/
!LO:TX:t=P:problem=kreska pseudotaktowa	!	!LO:TX:t=P:problem=kreska pseudotaktowa	!	!	!LO:TX:t=P:problem=kreska pseudotaktowa	!	!	!	!	!	!	!	!LO:TX:t=P:problem=kreska pseudotaktowa	!	!	!LO:TX:t=P:problem=kreska pseudotaktowa
4GG/	.	4B\	.	.	4gny/	.	.	.	.	.	.	.	4gny/	.	.	4gny/
1D	3	1d	8d\L	1dd	4.a\	.	.	.	.	.	.	.	4.a\	.	1dd	4.a/
.	.	.	8e\	.	.	.	.	.	.	.	.	.	.	.	.	.
.	.	.	8f#X\	.	.	.	.	.	.	.	.	.	.	.	.	.
.	4 #	.	8g\J	.	16b\LL	.	.	.	.	.	.	.	16b\LL	.	.	16b/LL
.	3	.	.	.	16cc\JJ	.	.	.	.	.	.	.	16cc\JJ	.	.	16cc/JJ
!	!	!	!	!	!	!	!	!	!	!	!	!	!	!	!	!LO:TX:t=P:problem=kreska pseudotaktowa
.	.	.	2a\	.	2dd\	.	.	.	.	.	.	.	2dd\	-lei-	.	2dd\
=19-	=19-	=19-	=19-	=19-	=19-	=19-	=19-	=19-	=19-	=19-	=19-	=19-	=19-	=19-	=19-	=19-
1GG;	.	1d;	1g;	1b;	1dd;	1ryy	1ryy	1ryy	1ryy	1ryy	1ryy	1ryy	1dd;;	-ſon.	1b;	1dd;
!	!	!	!	!	!	!	!	!	!	!	!	!	!	!	!LO:LB:g=original	!
=20||	=20||	=20||	=20||	=20||	=20||	=20||	=20||	=20||	=20||	=20||	=20||	=20||	=20||	=20||	=20||	=20||
*M3/1	*	*M3/1	*M3/1	*M3/1	*M3/1	*	*	*	*	*	*	*	*M3/1	*	*M3/1	*M3/1
*met(O)	*	*	*	*met(O)	*	*	*	*	*	*	*	*	*	*	*	*
!LO:TX:t=P:problem:oznaczenie menzuralne O 3/1	!	!	!	!LO:TX:t=P:problem:oznaczenie menzuralne O 3/1	!	!	!	!	!	!	!	!	!LO:TX:a:t=7	!	!	!LO:SIC:v:s=1.dd
!LO:TX:b:t=Kÿrie Sinfonia	!	!LO:TX:b:t=Kyrie. Sinfo&colon;	!LO:TX:b:t=Sinf&colon; Kyrie	!LO:TX:b:t=Kÿrie	!LO:TX:b:t=Kÿrie	!	!	!	!	!	!	!	!LO:TX:b:t=Sinf&colon;	!	!LO:TX:b:t=Kÿrie	!LO:TX:b:t=Kyrie
0.GG	.	1.B	0g	1.dd	1.gg	0.ryy	0.ryy	0.ryy	0.ryy	0.ryy	0.ryy	0.ryy	00.r	.	1.dd	1.ee
!	!	!	!	!	!	!	!	!	!	!	!	!	!	!	!	!LO:SIC:v:s=2dd
.	.	2B\	.	2dd\	2gg\	.	.	.	.	.	.	.	.	.	2dd\	2ee\
!	!	!	!	!	!	!	!	!	!	!	!	!	!	!	!	!LO:SIC:v:s=1dd
!	!	!	!LO:TX:t=P:problem=kreska pseudotaktowa	!	!LO:TX:t=P:problem=kreska pseudotaktowa	!	!	!	!	!	!	!	!	!	!	!LO:TX:t=P:problem=kreska pseudotaktowa
.	.	2B\	1g	2dd\	1gg	.	.	.	.	.	.	.	.	.	2dd\	1ee
!	!	!LO:TX:t=P:problem=kreska pseudotaktowa	!	!LO:TX:t=P:problem=kreska pseudotaktowa	!	!	!	!	!	!	!	!	!	!	!LO:TX:t=P:problem=kreska pseudotaktowa	!
.	.	2B\	.	2dd\	.	.	.	.	.	.	.	.	.	.	2dd\	.
!	!	!LO:LB:g=original	!LO:LB:g=original	!	!LO:LB:g=original	!	!	!	!	!	!	!	!	!	!	!
=21-	=21-	=21-	=21-	=21-	=21-	=21-	=21-	=21-	=21-	=21-	=21-	=21-	=21-	=21-	=21-	=21-
!LO:TX:t=P:problem=kreska pseudotaktowa	!	!	!	!	!	!	!	!	!	!	!	!	!	!	!	!
0.C	.	1.c	0g	1.ee	1.ee	0.ryy	0.ryy	0.ryy	0.ryy	0.ryy	0.ryy	0.ryy	.	.	1.ee	1.ee
.	.	2c\	.	2ee\	2ee\	.	.	.	.	.	.	.	.	.	2ee\	2ee\
!	!	!LO:TX:t=P:problem=kreska pseudotaktowa	!LO:TX:t=P:problem=kreska pseudotaktowa	!LO:TX:t=P:problem=kreska pseudotaktowa	!LO:TX:t=P:problem=kreska pseudotaktowa	!	!	!	!	!	!	!	!	!	!LO:TX:t=P:problem=kreska pseudotaktowa	!LO:TX:t=P:problem=kreska pseudotaktowa
.	.	1c	1g	1ee	1ee	.	.	.	.	.	.	.	.	.	1ee	1ee
=22-	=22-	=22-	=22-	=22-	=22-	=22-	=22-	=22-	=22-	=22-	=22-	=22-	=22-	=22-	=22-	=22-
!	!	!LO:TX:t=P:problem=kreska pseudotaktowa	!	!	!	!	!	!	!	!	!	!	!	!	!	!
0.AA	#	0.c#X	0a	1.ee	1ee	0.ryy	0.ryy	0.ryy	0.ryy	0.ryy	0.ryy	0.ryy	00.r	.	1.ee	1ee
.	.	.	.	.	1cc#X	.	.	.	.	.	.	.	.	.	.	1cc#X
.	.	.	.	2ee\	.	.	.	.	.	.	.	.	.	.	2ee\	.
!	!	!	!LO:TX:t=P:problem=kreska pseudotaktowa	!	!	!	!	!	!	!	!	!	!	!	!	!
.	.	.	1a	2ee\	2a/	.	.	.	.	.	.	.	.	.	2ee\	2a/
!	!	!	!	!LO:TX:t=P:problem=kreska pseudotaktowa	!LO:TX:t=P:problem=kreska pseudotaktowa	!	!	!	!	!	!	!	!	!	!LO:TX:t=P:problem=kreska pseudotaktowa	!LO:TX:t=P:problem=kreska pseudotaktowa
.	.	.	.	2ee\	2aa\	.	.	.	.	.	.	.	.	.	2ee\	2aa\
=23-	=23-	=23-	=23-	=23-	=23-	=23-	=23-	=23-	=23-	=23-	=23-	=23-	=23-	=23-	=23-	=23-
!	!	!LO:TX:t=P:problem=kreska pseudotaktowa	!	!LO:TX:t=P:problem=kreska pseudotaktowa	!	!	!	!	!	!	!	!	!	!	!LO:TX:t=P:problem=kreska pseudotaktowa	!LO:TX:t=P:problem=kreska pseudotaktowa
0.D	#	0.d	0a	0.ff#X	0.aa	0.ryy	0.ryy	0.ryy	0.ryy	0.ryy	0.ryy	0.ryy	.	.	0.ff#X	0.aa
!	!	!	!LO:TX:t=P:problem=kreska pseudotaktowa	!	!	!	!	!	!	!	!	!	!	!	!	!
.	.	.	1f#X	.	.	.	.	.	.	.	.	.	.	.	.	.
!LO:LB:g=original	!	!	!	!	!	!	!	!	!	!	!	!	!	!	!	!
=24-	=24-	=24-	=24-	=24-	=24-	=24-	=24-	=24-	=24-	=24-	=24-	=24-	=24-	=24-	=24-	=24-
!	!	!	!	!	!LO:TX:t=P:problem=kreska pseudotaktowa	!	!	!	!	!	!	!	!	!	!	!LO:TX:t=P:problem=kreska pseudotaktowa
0.BB	#	1r	0B	1.ff#X	0.bb	0.ryy	0.ryy	0.ryy	0.ryy	0.ryy	0.ryy	0.ryy	00.r	.	1.ff#X	0.bb
.	.	2f#X\	.	.	.	.	.	.	.	.	.	.	.	.	.	.
.	.	2d\	.	2ff#\	.	.	.	.	.	.	.	.	.	.	2ff#\	.
!	!	!	!LO:TX:t=P:problem=kreska pseudotaktowa	!LO:TX:t=P:problem=kreska pseudotaktowa	!	!	!	!	!	!	!	!	!	!	!LO:TX:t=P:problem=kreska pseudotaktowa	!
.	.	2d\	1B	1ff#	.	.	.	.	.	.	.	.	.	.	1ff#	.
!	!	!LO:TX:t=P:problem=kreska pseudotaktowa	!	!	!	!	!	!	!	!	!	!	!	!	!	!
.	.	2B\	.	.	.	.	.	.	.	.	.	.	.	.	.	.
*	*	*	*	*	*	*	*	*	*	*	*	*	*	*	*	*custos:bb
!	!	!	!	!LO:LB:g=original	!	!	!	!	!	!	!	!	!	!	!	!LO:LB:g=original
=25-	=25-	=25-	=25-	=25-	=25-	=25-	=25-	=25-	=25-	=25-	=25-	=25-	=25-	=25-	=25-	=25-
*col	*	*	*	*col	*	*	*	*	*	*	*	*	*	*	*col	*
!	!	!	!	!	!	!	!	!	!	!	!	!	!	!	!	!LO:TX:t=P:problem=kreska pseudotaktowa
1E	-	2G/	0B	1gg	0.bb	0.ryy	0.ryy	0.ryy	0.ryy	0.ryy	0.ryy	0.ryy	.	.	1gg	0.bb
.	.	2A/	.	.	.	.	.	.	.	.	.	.	.	.	.	.
!LO:N:acc=#	!	!	!	!	!	!	!	!	!	!	!	!	!	!	!	!
!LO:TX:t=P:problem=kreska pseudotaktowa	!	!	!	!	!	!	!	!	!	!	!	!	!	!	!	!
0BBn	# 4	1.B	.	0ff#X	.	.	.	.	.	.	.	.	.	.	0ff#X	.
!	!	!	!LO:TX:t=P:problem=kreska pseudotaktowa	!	!	!	!	!	!	!	!	!	!	!	!	!
.	x 3	.	1B	.	.	.	.	.	.	.	.	.	.	.	.	.
!	!	!LO:TX:t=P:problem=kreska pseudotaktowa	!	!	!	!	!	!	!	!	!	!	!	!	!	!
.	.	2A/	.	.	.	.	.	.	.	.	.	.	.	.	.	.
*Xcol	*	*	*	*Xcol	*	*	*	*	*	*	*	*	*	*	*Xcol	*
=26-	=26-	=26-	=26-	=26-	=26-	=26-	=26-	=26-	=26-	=26-	=26-	=26-	=26-	=26-	=26-	=26-
!LO:TX:b:i:t=Sopr&colon; e Alto	!	!	!LO:TX:t=P:problem=kreska pseudotaktowa	!	!	!	!	!	!	!	!	!	!	!	!LO:TX:t=P:problem=kreska pseudotaktowa	!LO:TX:t=P:problem=kreska pseudotaktowa
0.E	#	0.G#X	0.B	0.ee	0.bb	0.ryy	0.ryy	0.ryy	0.ryy	0.ryy	0.ryy	0.ryy	0.r	.	0.ee	0.bb
*	*	*	*	*	*	*	*	*	*	*	*	*	*	*	*custos:dd	*
!	!	!	!	!	!	!	!	!	!	!	!	!	!	!	!LO:LB:g=original	!
=27-	=27-	=27-	=27-	=27-	=27-	=27-	=27-	=27-	=27-	=27-	=27-	=27-	=27-	=27-	=27-	=27-
!LO:TX:t=P:problem=kreska pseudotaktowa	!	!	!	!LO:TX:a:t=5	!LO:TX:a:t=6	!	!	!	!	!	!	!	!LO:TX:b:i:t=Solo	!	!LO:TX:a:t=5	!LO:TX:a:t=6.
0.E	#	1.e	1.g#X	00.r	00.r	0.ryy	0.ryy	0.ryy	0.ryy	0.ryy	0.ryy	0.ryy	1.b	Kÿ-	00.r	00.r
.	.	2e\	2g#\	.	.	.	.	.	.	.	.	.	2b\	-ri-	.	.
!	!	!	!LO:TX:t=P:problem=kreska pseudotaktowa	!	!	!	!	!	!	!	!	!	!LO:TX:t=P:problem=kreska pseudotaktowa	!	!	!
.	.	1e	1g#	.	.	.	.	.	.	.	.	.	1b	-e	.	.
=28-	=28-	=28-	=28-	=28-	=28-	=28-	=28-	=28-	=28-	=28-	=28-	=28-	=28-	=28-	=28-	=28-
*	*	*	*	*	*	*	*	*	*	*	*	*	*	*ij	*	*
!	!	!LO:TX:t=P:problem=kreska pseudotaktowa	!	!	!	!	!	!	!	!	!	!	!	!	!	!
0.AA	#	0.e	1.a	.	.	0.ryy	0.ryy	0.ryy	0.ryy	0.ryy	0.ryy	0.ryy	1.cc#X	Kÿ-	.	.
.	.	.	2a\	.	.	.	.	.	.	.	.	.	2cc#\	-ri-	.	.
!	!	!	!LO:TX:t=P:problem=kreska pseudotaktowa	!	!	!	!	!	!	!	!	!	!LO:TX:t=P:problem=kreska pseudotaktowa	!	!	!
.	.	.	1a	.	.	.	.	.	.	.	.	.	1cc#	-e	.	.
=29-	=29-	=29-	=29-	=29-	=29-	=29-	=29-	=29-	=29-	=29-	=29-	=29-	=29-	=29-	=29-	=29-
!LO:TX:t=P:problem=kreska pseudotaktowa	!	!LO:TX:t=P:problem=kreska pseudotaktowa	!	!	!	!	!	!	!	!	!	!	!	!	!	!
0.D	#	0.d	2a\	00.r	00.r	0.ryy	0.ryy	0.ryy	0.ryy	0.ryy	0.ryy	0.ryy	1.a	Kÿ-	00.r	00.r
.	.	.	2gny\	.	.	.	.	.	.	.	.	.	.	.	.	.
.	.	.	1.f#X	.	.	.	.	.	.	.	.	.	.	.	.	.
.	.	.	.	.	.	.	.	.	.	.	.	.	2a\	-ri-	.	.
!	!	!	!	!	!	!	!	!	!	!	!	!	!LO:TX:t=P:problem=kreska pseudotaktowa	!	!	!
.	.	.	.	.	.	.	.	.	.	.	.	.	1a	-e	.	.
*	*	*	*	*	*	*	*	*	*	*	*	*	*	*Xij	*	*
!	!	!	!LO:TX:t=P:problem=kreska pseudotaktowa	!	!	!	!	!	!	!	!	!	!	!	!	!
.	.	.	2d\	.	.	.	.	.	.	.	.	.	.	.	.	.
=30-	=30-	=30-	=30-	=30-	=30-	=30-	=30-	=30-	=30-	=30-	=30-	=30-	=30-	=30-	=30-	=30-
0GG	.	1B	0d	.	.	0.ryy	0.ryy	0.ryy	0.ryy	0.ryy	0.ryy	0.ryy	(1.b	e-	.	.
.	.	1.Gny	.	.	.	.	.	.	.	.	.	.	.	.	.	.
.	.	.	.	.	.	.	.	.	.	.	.	.	4a\	.	.	.
.	.	.	.	.	.	.	.	.	.	.	.	.	4b\	.	.	.
!	!	!	!LO:TX:t=P:problem=kreska pseudotaktowa	!	!	!	!	!	!	!	!	!	!LO:TX:t=P:problem=kreska pseudotaktowa	!	!	!
1C	5	.	1e	.	.	.	.	.	.	.	.	.	1ccny	.	.	.
!	!	!LO:TX:t=P:problem=kreska pseudotaktowa	!	!	!	!	!	!	!	!	!	!	!	!	!	!
.	6	2A/	.	.	.	.	.	.	.	.	.	.	.	.	.	.
=31-	=31-	=31-	=31-	=31-	=31-	=31-	=31-	=31-	=31-	=31-	=31-	=31-	=31-	=31-	=31-	=31-
*col	*	*	*col	*	*	*	*	*	*	*	*	*	*col	*	*	*
!	!	!	!	!	!	!	!	!	!	!	!	!	!	!	!	!LO:TX:t=P:problem=kreska pseudotaktowa
1GG	4 #	2B\	1d	0.r	00.r	0.ryy	0.ryy	0.ryy	0.ryy	0.ryy	0.ryy	0.ryy	1b)	.	0.r	00.r
.	3	2cny\	.	.	.	.	.	.	.	.	.	.	.	.	.	.
!LO:TX:t=P:problem=kreska pseudotaktowa	!	!	!LO:TX:t=P:problem=kreska pseudotaktowa	!	!	!	!	!	!	!	!	!	!	!	!	!
0D	.	1.d	0d	.	.	.	.	.	.	.	.	.	0a	-lei-	.	.
!	!	!LO:TX:t=P:problem=kreska pseudotaktowa	!	!	!	!	!	!	!	!	!	!	!	!	!	!
.	.	2c\	.	.	.	.	.	.	.	.	.	.	.	.	.	.
*	*	*	*Xcol	*	*	*	*	*	*	*	*	*	*Xcol	*	*	*
*Xcol	*	*	*custos:d	*	*	*	*	*	*	*	*	*	*	*	*	*
!	!	!	!LO:LB:g=original	!	!	!	!	!	!	!	!	!	!	!	!	!
=32-	=32-	=32-	=32-	=32-	=32-	=32-	=32-	=32-	=32-	=32-	=32-	=32-	=32-	=32-	=32-	=32-
!LO:TX:b:t=tutti	!	!LO:TX:t=P:problem=kreska pseudotaktowa	!	!	!	!	!	!	!	!	!	!	!LO:TX:t=P:problem=kreska pseudotaktowa	!	!	!
0.GG	.	0.B	1d	1.dd	.	0.ryy	0.ryy	0.ryy	0.ryy	0.ryy	0.ryy	0.ryy	0.g	ſon,	1.dd	.
.	.	.	1g	.	.	.	.	.	.	.	.	.	.	.	.	.
.	.	.	.	2dd\	.	.	.	.	.	.	.	.	.	.	2dd\	.
!	!	!	!LO:TX:t=P:problem=kreska pseudotaktowa	!LO:TX:t=P:problem=kreska pseudotaktowa	!	!	!	!	!	!	!	!	!	!	!LO:TX:t=P:problem=kreska pseudotaktowa	!
.	.	.	1g	1dd	.	.	.	.	.	.	.	.	.	.	1dd	.
=33-	=33-	=33-	=33-	=33-	=33-	=33-	=33-	=33-	=33-	=33-	=33-	=33-	=33-	=33-	=33-	=33-
!LO:TX:t=P:problem=kreska pseudotaktowa	!	!LO:TX:t=P:problem=kreska pseudotaktowa	!	!	!	!	!	!	!	!	!	!	!	!	!	!
0.C	.	0.c	1.g	0.ee	1.ee	0.ryy	0.ryy	0.ryy	0.ryy	0.ryy	0.ryy	0.ryy	1.ee	Kÿ-	0.ee	1.ee
.	.	.	2g\	.	2ee\	.	.	.	.	.	.	.	2ee\	-ri-	.	2ee\
!	!	!	!LO:TX:t=P:problem=kreska pseudotaktowa	!	!LO:TX:t=P:problem=kreska pseudotaktowa	!	!	!	!	!	!	!	!	!	!	!LO:TX:t=P:problem=kreska pseudotaktowa
.	.	.	1g	.	1ee	.	.	.	.	.	.	.	1ee	-e	.	1ee
!	!	!LO:LB:g=original	!	!	!	!	!	!	!	!	!	!	!LO:LB:g=original	!	!	!
=34-	=34-	=34-	=34-	=34-	=34-	=34-	=34-	=34-	=34-	=34-	=34-	=34-	=34-	=34-	=34-	=34-
*	*	*	*	*	*	*	*	*	*	*	*	*	*	*ij	*	*
!	!	!LO:TX:t=P:problem=kreska pseudotaktowa	!	!	!	!	!	!	!	!	!	!	!	!	!	!
0.E	#	0.G	1.e	0b	1.ee	0.ryy	0.ryy	0.ryy	0.ryy	0.ryy	0.ryy	0.ryy	1.ee	Kÿ-	0b	1.ee
.	.	.	2e\	.	2ee\	.	.	.	.	.	.	.	2ee\	-ri-	.	2ee\
!	!	!	!LO:TX:t=P:problem=kreska pseudotaktowa	!LO:TX:t=P:problem=kreska pseudotaktowa	!LO:TX:t=P:problem=kreska pseudotaktowa	!	!	!	!	!	!	!	!LO:TX:t=P:problem=kreska pseudotaktowa	!	!LO:TX:t=P:problem=kreska pseudotaktowa	!LO:TX:t=P:problem=kreska pseudotaktowa
.	.	.	1e	1ee	1ee	.	.	.	.	.	.	.	1ee	-e	1ee	1ee
=35-	=35-	=35-	=35-	=35-	=35-	=35-	=35-	=35-	=35-	=35-	=35-	=35-	=35-	=35-	=35-	=35-
!LO:TX:t=P:problem=kreska pseudotaktowa	!	!LO:TX:t=P:problem=kreska pseudotaktowa	!	!	!	!	!	!	!	!	!	!	!	!	!	!
0.AA	#	0.E	1.e	0.cc#X	1.ee	0.ryy	0.ryy	0.ryy	0.ryy	0.ryy	0.ryy	0.ryy	1.ee	Kÿ-	0cc#X	1.ee
.	.	.	2e\	.	2ee\	.	.	.	.	.	.	.	2ee\	-ri-	.	2ee\
!	!	!	!LO:TX:t=P:problem=kreska pseudotaktowa	!	!	!	!	!	!	!	!	!	!LO:TX:t=P:problem=kreska pseudotaktowa	!	!	!LO:TX:t=P:problem=kreska pseudotaktowa
.	.	.	1e	.	1ee	.	.	.	.	.	.	.	1ee	-e	1r	1ee
*	*	*	*	*	*	*	*	*	*	*	*	*	*	*Xij	*	*
=36-	=36-	=36-	=36-	=36-	=36-	=36-	=36-	=36-	=36-	=36-	=36-	=36-	=36-	=36-	=36-	=36-
!LO:TX:b:i:t=Ten e Baſ	!	!	!	!LO:TX:a:t=2	!LO:TX:a:t=3	!	!	!	!	!	!	!	!LO:TX:a:t=3	!	!LO:TX:a:t=2	!LO:TX:a:t=3.
0AA	.	0A	0e	00.r	00.r	0.ryy	0.ryy	0.ryy	0.ryy	0.ryy	0.ryy	0.ryy	00.r	.	00.r	00.r
!	!	!	!LO:TX:t=P:problem=kreska pseudotaktowa	!	!	!	!	!	!	!	!	!	!	!	!	!
1D	5 #	2A/	1f#X	.	.	.	.	.	.	.	.	.	.	.	.	.
!	!	!LO:TX:t=P:problem=kreska pseudotaktowa	!	!	!	!	!	!	!	!	!	!	!	!	!	!
.	6	2B/	.	.	.	.	.	.	.	.	.	.	.	.	.	.
=37-	=37-	=37-	=37-	=37-	=37-	=37-	=37-	=37-	=37-	=37-	=37-	=37-	=37-	=37-	=37-	=37-
*col	*	*	*col	*	*	*	*	*	*	*	*	*	*	*	*	*
1AA	.	2c/	1e	.	.	0.ryy	0.ryy	0.ryy	0.ryy	0.ryy	0.ryy	0.ryy	.	.	.	.
.	.	2d/	.	.	.	.	.	.	.	.	.	.	.	.	.	.
!LO:TX:t=P:problem=kreska pseudotaktowa	!	!	!	!	!	!	!	!	!	!	!	!	!	!	!	!
*	*	*lig	*	*	*	*	*	*	*	*	*	*	*	*	*	*
!	!	!	!LO:TX:t=P:problem=kreska pseudotaktowa	!	!	!	!	!	!	!	!	!	!	!	!	!
0E	# 4	1e	0e	.	.	.	.	.	.	.	.	.	.	.	.	.
!	!	!LO:TX:t=P:problem=kreska pseudotaktowa	!	!	!	!	!	!	!	!	!	!	!	!	!	!
.	x 3	1E	.	.	.	.	.	.	.	.	.	.	.	.	.	.
*Xcol	*	*Xlig	*Xcol	*	*	*	*	*	*	*	*	*	*	*	*	*
=38-	=38-	=38-	=38-	=38-	=38-	=38-	=38-	=38-	=38-	=38-	=38-	=38-	=38-	=38-	=38-	=38-
!	!	!	!LO:TX:t=P:problem=kreska pseudotaktowa	!	!	!	!	!	!	!	!	!	!	!	!	!LO:TX:t=P:problem=kreska pseudotaktowa
0.AA	.	1.E	0.e	1.cc#X	0.r	0.ryy	0.ryy	0.ryy	0.ryy	0.ryy	0.ryy	0.ryy	0.r	.	1.cc#X	0.r
.	.	2A/	.	2cc#\	.	.	.	.	.	.	.	.	.	.	2cc#\	.
!	!	!LO:TX:t=P:problem=kreska pseudotaktowa	!	!LO:TX:t=P:problem=kreska pseudotaktowa	!	!	!	!	!	!	!	!	!	!	!LO:TX:t=P:problem=kreska pseudotaktowa	!
.	.	1A	.	1cc#	.	.	.	.	.	.	.	.	.	.	1cc#	.
=39-	=39-	=39-	=39-	=39-	=39-	=39-	=39-	=39-	=39-	=39-	=39-	=39-	=39-	=39-	=39-	=39-
!	!	!	!LO:TX:t=P:problem=kreska pseudotaktowa	!	!	!	!	!	!	!	!	!	!	!	!	!
!LO:TX:t=P:problem=kreska pseudotaktowa	!	!	!LO:N:acc=#	!	!	!	!	!	!	!	!	!	!	!	!	!LO:TX:t=P:problem=kreska pseudotaktowa
0.D	#	1.A	0.fn	0.dd	0.ff	0.ryy	0.ryy	0.ryy	0.ryy	0.ryy	0.ryy	0.ryy	1.a	Kÿ-	0dd	0.ff
.	.	2A/	.	.	.	.	.	.	.	.	.	.	2a\	-ri-	.	.
!	!	!LO:TX:t=P:problem=kreska pseudotaktowa	!	!	!	!	!	!	!	!	!	!	!LO:TX:t=P:problem=kreska pseudotaktowa	!	!	!
.	.	1A	.	.	.	.	.	.	.	.	.	.	1a	-e	1ryy	.
=40-	=40-	=40-	=40-	=40-	=40-	=40-	=40-	=40-	=40-	=40-	=40-	=40-	=40-	=40-	=40-	=40-
*	*	*	*	*	*	*	*	*	*	*	*	*	*	*ij	*	*
!LO:TX:b:t=tutti	!	!LO:TX:t=P:problem=kreska pseudotaktowa	!LO:TX:t=P:problem=kreska pseudotaktowa	!	!	!	!	!	!	!	!	!	!	!	!	!
0.GG	.	0.G	0.d	0.b	0.gg	0.ryy	0.ryy	0.ryy	0.ryy	0.ryy	0.ryy	0.ryy	1.b	Kÿ-	0.b	0.gg
.	.	.	.	.	.	.	.	.	.	.	.	.	2b\	-ri-	.	.
!	!	!	!	!	!	!	!	!	!	!	!	!	!LO:TX:t=P:problem=kreska pseudotaktowa	!	!	!
.	.	.	.	.	.	.	.	.	.	.	.	.	1b	-e	.	.
*	*	*	*	*	*	*	*	*	*	*	*	*	*	*Xij	*	*
!	!	!	!	!	!LO:LB:g=original	!	!	!	!	!	!	!	!	!	!	!
=41-	=41-	=41-	=41-	=41-	=41-	=41-	=41-	=41-	=41-	=41-	=41-	=41-	=41-	=41-	=41-	=41-
!	!	!	!	!LO:TX:a:t=15	!LO:TX:a:t=19	!	!	!	!	!	!	!	!LO:TX:a:t=3	!	!LO:TX:a:t=15	!LO:TX:a:t=19
0E	.	1G	0e	00.r	00.r	0.ryy	0.ryy	0.ryy	0.ryy	0.ryy	0.ryy	0.ryy	00.r	.	00.r	00.r
.	.	1g	.	.	.	.	.	.	.	.	.	.	.	.	.	.
!LO:TX:t=P:problem=kreska pseudotaktowa	!	!	!	!	!	!	!	!	!	!	!	!	!	!	!	!
!LO:TX:b:i:t=Baſ.	!	!LO:TX:t=P:problem=kreska pseudotaktowa	!LO:TX:t=P:problem=kreska pseudotaktowa	!	!	!	!	!	!	!	!	!	!	!	!	!
1BB	#	1f#X	1d#X	.	.	.	.	.	.	.	.	.	.	.	.	.
=42-	=42-	=42-	=42-	=42-	=42-	=42-	=42-	=42-	=42-	=42-	=42-	=42-	=42-	=42-	=42-	=42-
*col	*	*	*	*	*	*	*	*	*	*	*	*	*	*	*	*
1E	-	1g	0e	.	.	0.ryy	0.ryy	0.ryy	0.ryy	0.ryy	0.ryy	0.ryy	.	.	.	.
!	!	!LO:TX:t=P:problem=kreska pseudotaktowa	!	!	!	!	!	!	!	!	!	!	!	!	!	!
0BB	4 #	0f#X	.	.	.	.	.	.	.	.	.	.	.	.	.	.
!	!	!	!LO:TX:t=P:problem=kreska pseudotaktowa	!	!	!	!	!	!	!	!	!	!	!	!	!
.	3	.	1d#X	.	.	.	.	.	.	.	.	.	.	.	.	.
*Xcol	*	*	*	*	*	*	*	*	*	*	*	*	*	*	*	*
=43-	=43-	=43-	=43-	=43-	=43-	=43-	=43-	=43-	=43-	=43-	=43-	=43-	=43-	=43-	=43-	=43-
!LO:TX:t=P:problem=kreska pseudotaktowa	!	!LO:TX:t=P:problem=kreska pseudotaktowa	!LO:TX:t=P:problem=kreska pseudotaktowa	!	!	!	!	!	!	!	!	!	!	!	!	!
0.E	#	0.g	0.e	00.r	00.r	0.ryy	0.ryy	0.ryy	0.ryy	0.ryy	0.ryy	0.ryy	0.r	.	00.r	00.r
*	*	*	*custos:g	*	*	*	*	*	*	*	*	*	*	*	*	*
!	!	!	!LO:LB:g=original	!	!	!	!	!	!	!	!	!	!	!	!	!
=44-	=44-	=44-	=44-	=44-	=44-	=44-	=44-	=44-	=44-	=44-	=44-	=44-	=44-	=44-	=44-	=44-
!	!	!LO:TX:t=P:problem=kreska pseudotaktowa	!	!	!	!	!	!	!	!	!	!	!LO:TX:b:i:t=Solo	!	!	!
0E	#	0.e	1.g#X	.	.	0.ryy	0.ryy	0.ryy	0.ryy	0.ryy	0.ryy	0.ryy	1.b	Kÿ-	.	.
.	.	.	2f#X\	.	.	.	.	.	.	.	.	.	2a\	-ri-	.	.
!LO:TX:t=P:problem=kreska pseudotaktowa	!	!	!	!	!	!	!	!	!	!	!	!	!	!	!	!
!LO:TX:b:i:t=Sopr..	!	!	!	!	!	!	!	!	!	!	!	!	!	!	!	!
1AA	-	.	2a\	.	.	.	.	.	.	.	.	.	2cc\	-e	.	.
!	!	!	!LO:TX:t=P:problem=kreska pseudotaktowa	!	!	!	!	!	!	!	!	!	!LO:TX:t=P:problem=kreska pseudotaktowa	!	!	!
.	.	.	2g#X\	.	.	.	.	.	.	.	.	.	2b\	.	.	.
=45-	=45-	=45-	=45-	=45-	=45-	=45-	=45-	=45-	=45-	=45-	=45-	=45-	=45-	=45-	=45-	=45-
!	!	!LO:TX:t=P:problem=kreska pseudotaktowa	!	!	!	!	!	!	!	!	!	!	!	!	!	!
0D	#	0.d	1.f#X	00.r	00.r	0.ryy	0.ryy	0.ryy	0.ryy	0.ryy	0.ryy	0.ryy	1.a	.	00.r	00.r
.	.	.	2e\	.	.	.	.	.	.	.	.	.	2g/	.	.	.
!LO:TX:t=P:problem=kreska pseudotaktowa	!	!	!	!	!	!	!	!	!	!	!	!	!	!	!	!
1GG	.	.	2gny\	.	.	.	.	.	.	.	.	.	2b\	.	.	.
!	!	!	!LO:TX:t=P:problem=kreska pseudotaktowa	!	!	!	!	!	!	!	!	!	!LO:TX:t=P:problem=kreska pseudotaktowa	!	!	!
.	.	.	2f#\	.	.	.	.	.	.	.	.	.	2a\	.	.	.
=46-	=46-	=46-	=46-	=46-	=46-	=46-	=46-	=46-	=46-	=46-	=46-	=46-	=46-	=46-	=46-	=46-
0C	.	1e	2e\	.	.	0.ryy	0.ryy	0.ryy	0.ryy	0.ryy	0.ryy	0.ryy	2g/	.	.	.
.	.	.	2dny\	.	.	.	.	.	.	.	.	.	2f#X/	.	.	.
.	.	1c	2e\	.	.	.	.	.	.	.	.	.	2g/	.	.	.
!	!	!	!LO:SIC:v:s=2f#	!	!	!	!	!	!	!	!	!	!	!	!	!
.	.	.	2fny\	.	.	.	.	.	.	.	.	.	2a\	.	.	.
!LO:TX:t=P:problem=kreska pseudotaktowa	!	!LO:TX:t=P:problem=kreska pseudotaktowa	!LO:TX:t=P:problem=kreska pseudotaktowa	!	!	!	!	!	!	!	!	!	!LO:TX:t=P:problem=kreska pseudotaktowa	!	!	!
1BB	6\ #	1d	1g#X	.	.	.	.	.	.	.	.	.	1b	.	.	.
!	!	!LO:LB:g=original	!	!	!	!	!	!	!	!	!	!	!	!	!	!
=47-	=47-	=47-	=47-	=47-	=47-	=47-	=47-	=47-	=47-	=47-	=47-	=47-	=47-	=47-	=47-	=47-
*col	*	*	*	*	*	*	*	*	*	*	*	*	*	*	*	*
!	!	!LO:TX:t=P:problem=kreska pseudotaktowa	!	!	!	!	!	!	!	!	!	!	!	!	!	!
1AA	-	0.e	0a	00.r	00.r	0.ryy	0.ryy	0.ryy	0.ryy	0.ryy	0.ryy	0.ryy	1cc	e-	00.r	00.r
!LO:TX:t=P:problem=kreska pseudotaktowa	!	!	!	!	!	!	!	!	!	!	!	!	!	!	!	!
!LO:TX:b:i:t=Alto	!	!	!	!	!	!	!	!	!	!	!	!	!	!	!	!
0E	4 #	.	.	.	.	.	.	.	.	.	.	.	1.b	-lei-	.	.
!	!	!	!LO:TX:t=P:problem=kreska pseudotaktowa	!	!	!	!	!	!	!	!	!	!	!	!	!
.	3	.	1g#X	.	.	.	.	.	.	.	.	.	.	.	.	.
.	.	.	.	.	.	.	.	.	.	.	.	.	2b\	.	.	.
*Xcol	*	*	*	*	*	*	*	*	*	*	*	*	*	*	*	*
=48-	=48-	=48-	=48-	=48-	=48-	=48-	=48-	=48-	=48-	=48-	=48-	=48-	=48-	=48-	=48-	=48-
!	!	!	!LO:TX:t=P:problem=kreska pseudotaktowa	!	!	!	!	!	!	!	!	!	!LO:TX:t=P:problem=kreska pseudotaktowa	!	!	!
0AA	#	0c#X	0.a	.	.	0.ryy	0.ryy	0.ryy	0.ryy	0.ryy	0.ryy	0.ryy	0.a	ſon	.	.
!	!	!LO:TX:t=P:problem=kreska pseudotaktowa	!	!	!	!	!	!	!	!	!	!	!	!	!	!
1FF	6	1A	.	.	.	.	.	.	.	.	.	.	.	.	.	.
.	5	.	.	.	.	.	.	.	.	.	.	.	.	.	.	.
!	!	!	!	!	!	!	!	!	!	!	!	!	!LO:LB:g=original	!	!	!
=49-	=49-	=49-	=49-	=49-	=49-	=49-	=49-	=49-	=49-	=49-	=49-	=49-	=49-	=49-	=49-	=49-
!	!	!	!LO:TX:t=P:problem=kreska pseudotaktowa	!	!	!	!	!	!	!	!	!	!LO:TX:a:t=3	!	!	!
0GG	.	0B	0.gny	00.r	00.r	0.ryy	0.ryy	0.ryy	0.ryy	0.ryy	0.ryy	0.ryy	00.r	.	00.r	00.r
!LO:TX:t=P:problem=kreska pseudotaktowa	!	!LO:TX:t=P:problem=kreska pseudotaktowa	!	!	!	!	!	!	!	!	!	!	!	!	!	!
1EE	6	1G	.	.	.	.	.	.	.	.	.	.	.	.	.	.
.	5	.	.	.	.	.	.	.	.	.	.	.	.	.	.	.
=50-	=50-	=50-	=50-	=50-	=50-	=50-	=50-	=50-	=50-	=50-	=50-	=50-	=50-	=50-	=50-	=50-
!LO:TX:b:t=Ten	!	!	!	!	!	!	!	!	!	!	!	!	!	!	!	!
1FF	.	0A	1.f	.	.	0.ryy	0.ryy	0.ryy	0.ryy	0.ryy	0.ryy	0.ryy	.	.	.	.
1F	.	.	.	.	.	.	.	.	.	.	.	.	.	.	.	.
.	.	.	2a\	.	.	.	.	.	.	.	.	.	.	.	.	.
!LO:TX:t=P:problem=kreska pseudotaktowa	!	!LO:TX:t=P:problem=kreska pseudotaktowa	!LO:TX:t=P:problem=kreska pseudotaktowa	!	!	!	!	!	!	!	!	!	!	!	!	!
1E	6\	1E	1g	.	.	.	.	.	.	.	.	.	.	.	.	.
=51-	=51-	=51-	=51-	=51-	=51-	=51-	=51-	=51-	=51-	=51-	=51-	=51-	=51-	=51-	=51-	=51-
*col	*	*col	*	*	*	*	*	*	*	*	*	*	*	*	*	*
1D	.	1A	2f\	00.r	00.r	0.ryy	0.ryy	0.ryy	0.ryy	0.ryy	0.ryy	0.ryy	0.r	.	00.r	00.r
.	.	.	2g\	.	.	.	.	.	.	.	.	.	.	.	.	.
!LO:TX:t=P:problem=kreska pseudotaktowa	!	!LO:TX:t=P:problem=kreska pseudotaktowa	!	!	!	!	!	!	!	!	!	!	!	!	!	!
0AA	4 #	0A	1.a	.	.	.	.	.	.	.	.	.	.	.	.	.
!	!	!	!LO:TX:t=P:problem=kreska pseudotaktowa	!	!	!	!	!	!	!	!	!	!	!	!	!
.	3	.	2e\	.	.	.	.	.	.	.	.	.	.	.	.	.
*Xcol	*	*Xcol	*custos:f	*	*	*	*	*	*	*	*	*	*	*	*	*
!LO:LB:g=original	!	!	!LO:LB:g=original	!	!	!	!	!	!	!	!	!	!	!	!	!
=52-	=52-	=52-	=52-	=52-	=52-	=52-	=52-	=52-	=52-	=52-	=52-	=52-	=52-	=52-	=52-	=52-
!LO:TX:b:i:t=Sop&colon;	!	!	!	!	!	!	!	!	!	!	!	!	!	!	!	!
0D	#	1A	0f#X	.	.	0.ryy	0.ryy	0.ryy	0.ryy	0.ryy	0.ryy	0.ryy	1.a	Kÿ-	.	.
.	.	1d	.	.	.	.	.	.	.	.	.	.	.	.	.	.
.	.	.	.	.	.	.	.	.	.	.	.	.	2g/	-ri-	.	.
!	!	!LO:TX:t=P:problem=kreska pseudotaktowa	!	!	!	!	!	!	!	!	!	!	!	!	!	!
1GG	-	1d	2g\	.	.	.	.	.	.	.	.	.	2b-X\	-e	.	.
!	!	!	!LO:TX:t=P:problem=kreska pseudotaktowa	!	!	!	!	!	!	!	!	!	!LO:TX:t=P:problem=kreska pseudotaktowa	!	!	!
.	.	.	2f#\	.	.	.	.	.	.	.	.	.	2a\	.	.	.
=53-	=53-	=53-	=53-	=53-	=53-	=53-	=53-	=53-	=53-	=53-	=53-	=53-	=53-	=53-	=53-	=53-
!	!	!LO:TX:t=P:problem=kreska pseudotaktowa	!	!	!	!	!	!	!	!	!	!	!	!	!	!
0C	.	0.cny	1.e	00.r	00.r	0.ryy	0.ryy	0.ryy	0.ryy	0.ryy	0.ryy	0.ryy	1.g	.	00.r	00.r
.	.	.	2d\	.	.	.	.	.	.	.	.	.	2f/	.	.	.
!LO:TX:t=P:problem=kreska pseudotaktowa	!	!	!	!	!	!	!	!	!	!	!	!	!	!	!	!
1FF	.	.	2fny\	.	.	.	.	.	.	.	.	.	2a\	.	.	.
!	!	!	!LO:TX:t=P:problem=kreska pseudotaktowa	!	!	!	!	!	!	!	!	!	!LO:TX:t=P:problem=kreska pseudotaktowa	!	!	!
.	.	.	2e\	.	.	.	.	.	.	.	.	.	2g/	.	.	.
=54-	=54-	=54-	=54-	=54-	=54-	=54-	=54-	=54-	=54-	=54-	=54-	=54-	=54-	=54-	=54-	=54-
0BB-X	.	1.B-X	2d\	.	.	0.ryy	0.ryy	0.ryy	0.ryy	0.ryy	0.ryy	0.ryy	2f/	.	.	.
.	.	.	2c/	.	.	.	.	.	.	.	.	.	2e/	.	.	.
.	.	.	2d\	.	.	.	.	.	.	.	.	.	2f/	.	.	.
.	.	2d\	2e/	.	.	.	.	.	.	.	.	.	2g/	.	.	.
!	!	!LO:TX:t=P:problem=kreska pseudotaktowa	!LO:TX:t=P:problem=kreska pseudotaktowa	!	!	!	!	!	!	!	!	!	!LO:TX:t=P:problem=kreska pseudotaktowa	!	!	!
1AA	# 6\	1c	1f#X	.	.	.	.	.	.	.	.	.	1a	.	.	.
=55-	=55-	=55-	=55-	=55-	=55-	=55-	=55-	=55-	=55-	=55-	=55-	=55-	=55-	=55-	=55-	=55-
*col	*	*	*	*	*	*	*	*	*	*	*	*	*	*	*	*
!	!	!LO:TX:t=P:problem=kreska pseudotaktowa	!	!	!	!	!	!	!	!	!	!	!	!	!	!
1GG	6	0.d	0g	0.r	00.r	0.ryy	0.ryy	0.ryy	0.ryy	0.ryy	0.ryy	0.ryy	1b-X	e-	0.r	00.r
!LO:TX:t=P:problem=kreska pseudotaktowa	!	!	!	!	!	!	!	!	!	!	!	!	!	!	!	!
0D	# 4	.	.	.	.	.	.	.	.	.	.	.	1.a	-lei-	.	.
!	!	!	!LO:TX:t=P:problem=kreska pseudotaktowa	!	!	!	!	!	!	!	!	!	!	!	!	!
.	x 3	.	1f#X	.	.	.	.	.	.	.	.	.	.	.	.	.
!	!	!	!	!	!	!	!	!	!	!	!	!	!LO:TX:t=P:problem=kreska pseudotaktowa	!	!	!
.	.	.	.	.	.	.	.	.	.	.	.	.	2a\	.	.	.
*Xcol	*	*	*	*	*	*	*	*	*	*	*	*	*	*	*	*
=56-	=56-	=56-	=56-	=56-	=56-	=56-	=56-	=56-	=56-	=56-	=56-	=56-	=56-	=56-	=56-	=56-
!LO:TX:b:t=2 Chor.	!	!	!LO:TX:t=P:problem=kreska pseudotaktowa	!	!	!	!	!	!	!	!	!	!	!	!	!
0G	.	1.Bny	0.g	1.dd	.	0.ryy	0.ryy	0.ryy	0.ryy	0.ryy	0.ryy	0.ryy	0.g	-ſon	1.dd	.
.	.	2A/	.	2ccny\	.	.	.	.	.	.	.	.	.	.	2ccny\	.
1E	6	2c\	.	2ee\	.	.	.	.	.	.	.	.	.	.	2ee\	.
!	!	!LO:TX:t=P:problem=kreska pseudotaktowa	!	!LO:TX:t=P:problem=kreska pseudotaktowa	!	!	!	!	!	!	!	!	!	!	!LO:TX:t=P:problem=kreska pseudotaktowa	!
.	5	2B/	.	2dd\	.	.	.	.	.	.	.	.	.	.	2dd\	.
!	!	!	!	!	!	!	!	!	!	!	!	!	!	!	!LO:LB:g=original	!
=57-	=57-	=57-	=57-	=57-	=57-	=57-	=57-	=57-	=57-	=57-	=57-	=57-	=57-	=57-	=57-	=57-
!	!	!	!LO:TX:t=P:problem=kreska pseudotaktowa	!	!	!	!	!	!	!	!	!	!LO:TX:a:t=3	!	!	!
0F	.	1.A	0.fny	1.cc	00.r	0.ryy	0.ryy	0.ryy	0.ryy	0.ryy	0.ryy	0.ryy	00.r	.	1.cc	00.r
.	.	2G/	.	2b/	.	.	.	.	.	.	.	.	.	.	2b/	.
!LO:TX:t=P:problem=kreska pseudotaktowa	!	!	!	!	!	!	!	!	!	!	!	!	!	!	!	!
1D	6	2B\	.	2dd\	.	.	.	.	.	.	.	.	.	.	2dd\	.
!	!	!LO:TX:t=P:problem=kreska pseudotaktowa	!	!LO:TX:t=P:problem=kreska pseudotaktowa	!	!	!	!	!	!	!	!	!	!	!LO:TX:t=P:problem=kreska pseudotaktowa	!
.	5	2A/	.	2cc\	.	.	.	.	.	.	.	.	.	.	2cc\	.
!	!	!LO:LB:g=original	!	!LO:LB:g=original	!	!	!	!	!	!	!	!	!	!	!	!
=58-	=58-	=58-	=58-	=58-	=58-	=58-	=58-	=58-	=58-	=58-	=58-	=58-	=58-	=58-	=58-	=58-
0E	.	2G/	0e	2b/	.	0.ryy	0.ryy	0.ryy	0.ryy	0.ryy	0.ryy	0.ryy	.	.	2b/	.
!	!	!LO:SIC:v:s=2F#	!	!	!	!	!	!	!	!	!	!	!	!	!	!
.	.	2F/	.	2a/	.	.	.	.	.	.	.	.	.	.	2a/	.
.	.	2G/	.	2b/	.	.	.	.	.	.	.	.	.	.	2b/	.
.	.	2A/	.	2cc\	.	.	.	.	.	.	.	.	.	.	2cc\	.
!	!	!	!LO:SIC:v:s=1d	!	!	!	!	!	!	!	!	!	!	!	!	!
!	!	!LO:TX:t=P:problem=kreska pseudotaktowa	!LO:TX:t=P:problem=kreska pseudotaktowa	!LO:TX:t=P:problem=kreska pseudotaktowa	!	!	!	!	!	!	!	!	!	!	!LO:TX:t=P:problem=kreska pseudotaktowa	!
1BBny	.	1B	1e	1dd	.	.	.	.	.	.	.	.	.	.	1dd	.
=59-	=59-	=59-	=59-	=59-	=59-	=59-	=59-	=59-	=59-	=59-	=59-	=59-	=59-	=59-	=59-	=59-
*	*	*	*	*col	*	*	*	*	*	*	*	*	*	*	*col	*
!	!	!	!	!	!	!	!	!	!	!	!	!	!	!	!	!LO:TX:t=P:problem=kreska pseudotaktowa
1C	6	0A	1e	1cc	0.r	0.ryy	0.ryy	0.ryy	0.ryy	0.ryy	0.ryy	0.ryy	0.r	.	1cc	0.r
1D	6 5	.	1f	0b	.	.	.	.	.	.	.	.	.	.	0b	.
!LO:TX:t=P:problem=kreska pseudotaktowa	!	!	!LO:TX:t=P:problem=kreska pseudotaktowa	!	!	!	!	!	!	!	!	!	!	!	!	!
1E	#	1G#X	1e	.	.	.	.	.	.	.	.	.	.	.	.	.
*	*	*	*	*Xcol	*	*	*	*	*	*	*	*	*	*	*Xcol	*
=60-	=60-	=60-	=60-	=60-	=60-	=60-	=60-	=60-	=60-	=60-	=60-	=60-	=60-	=60-	=60-	=60-
!	!	!	!	!	!	!	!	!	!	!	!	!	!LO:TX:b:t=tutti	!	!	!
0AA	#	1A	1e	1a	1.ee	0.ryy	0.ryy	0.ryy	0.ryy	0.ryy	0.ryy	0.ryy	1.ee	Kÿ-	1a	1.ee
.	.	1r	1r	1r	.	.	.	.	.	.	.	.	.	.	1r	.
.	.	.	.	.	2dd\	.	.	.	.	.	.	.	2dd\	-ri-	.	2dd\
1FF	6	1r	1r	1r	2ff\	.	.	.	.	.	.	.	(2ff\	-e.	1r	2ff
!	!	!	!	!	!LO:TX:t=P:problem=kreska pseudotaktowa	!	!	!	!	!	!	!	!LO:TX:t=P:problem=kreska pseudotaktowa	!	!	!LO:TX:t=P:problem=kreska pseudotaktowa
*	*	*	*	*	*	*	*	*	*	*	*	*	*	*	*	*custos:ee
!	!	!	!	!	!	!	!	!	!	!	!	!	!	!	!	!LO:TX:t=P:problem=kreska pseudotaktowa
.	5	.	.	.	2ee\	.	.	.	.	.	.	.	2ee\)	.	.	2ee\
=61-	=61-	=61-	=61-	=61-	=61-	=61-	=61-	=61-	=61-	=61-	=61-	=61-	=61-	=61-	=61-	=61-
!LO:TX:b:t=tutti	!	!LO:TX:a:t=3	!LO:TX:a:t=3	!LO:TX:a:t=3	!	!	!	!	!	!	!	!	!	!	!LO:TX:a:t=3	!
0GG	.	00.r	00.r	00.r	1.dd	0.ryy	0.ryy	0.ryy	0.ryy	0.ryy	0.ryy	0.ryy	1.dd	Kÿ-	00.r	1.dd
!	!	!	!	!	!	!	!	!	!	!	!	!	!LO:SIC:v:s=2cc	!	!	!
.	.	.	.	.	2ccny\	.	.	.	.	.	.	.	2bny\	-ri-	.	2ccny\
!LO:TX:t=P:problem=kreska pseudotaktowa	!	!	!	!	!	!	!	!	!	!	!	!	!	!	!	!
1EE	6	.	.	.	2ee\	.	.	.	.	.	.	.	(2ee\	-e	.	2ee\
!	!	!	!	!	!LO:TX:t=P:problem=kreska pseudotaktowa	!	!	!	!	!	!	!	!LO:TX:t=P:problem=kreska pseudotaktowa	!	!	!LO:TX:t=P:problem=kreska pseudotaktowa
.	5	.	.	.	2dd\	.	.	.	.	.	.	.	2dd\)	.	.	2dd\
=62-	=62-	=62-	=62-	=62-	=62-	=62-	=62-	=62-	=62-	=62-	=62-	=62-	=62-	=62-	=62-	=62-
1FF	.	.	.	.	2cc\	0.ryy	0.ryy	0.ryy	0.ryy	0.ryy	0.ryy	0.ryy	2cc\	.	.	2cc\
.	.	.	.	.	2b/	.	.	.	.	.	.	.	2b\	.	.	2b/
1F	.	.	.	.	2cc\	.	.	.	.	.	.	.	2cc\	.	.	2cc\
.	.	.	.	.	2dd\	.	.	.	.	.	.	.	2dd\	.	.	2dd\
!LO:TX:t=P:problem=kreska pseudotaktowa	!	!	!	!	!LO:TX:t=P:problem=kreska pseudotaktowa	!	!	!	!	!	!	!	!LO:TX:t=P:problem=kreska pseudotaktowa	!	!	!LO:TX:t=P:problem=kreska pseudotaktowa
1C	.	.	.	.	1ee	.	.	.	.	.	.	.	1ee	.	.	1ee
=63-	=63-	=63-	=63-	=63-	=63-	=63-	=63-	=63-	=63-	=63-	=63-	=63-	=63-	=63-	=63-	=63-
*	*	*	*	*	*col	*	*	*	*	*	*	*	*col	*	*	*col
1E	6	0.r	0.r	0.r	1ee	0.ryy	0.ryy	0.ryy	0.ryy	0.ryy	0.ryy	0.ryy	1ee	e-	0.r	1ee
1F	6 5	.	.	.	0dd	.	.	.	.	.	.	.	0dd	-lei-	.	0dd
!LO:TX:t=P:problem=kreska pseudotaktowa	!	!	!	!	!	!	!	!	!	!	!	!	!	!	!	!
1G	.	.	.	.	.	.	.	.	.	.	.	.	.	.	.	.
*	*	*	*	*	*Xcol	*	*	*	*	*	*	*	*Xcol	*	*	*
!LO:LB:g=original	!	!	!	!	!	!	!	!	!	!	!	!	!	!	!	!
=64-	=64-	=64-	=64-	=64-	=64-	=64-	=64-	=64-	=64-	=64-	=64-	=64-	=64-	=64-	=64-	=64-
!	!	!	!	!	!LO:TX:t=P:problem=kreska pseudotaktowa	!	!	!	!	!	!	!	!LO:TX:t=P:problem=kreska pseudotaktowa	!	!	!
0C	.	1.e	1.g	0cc	0.cc	0.ryy	0.ryy	0.ryy	0.ryy	0.ryy	0.ryy	0.ryy	0.cc	ſon,	0cc	0cc
.	.	2d\	2e\	.	.	.	.	.	.	.	.	.	.	.	.	.
!	!	!LO:TX:t=P:problem=kreska pseudotaktowa	!LO:TX:t=P:problem=kreska pseudotaktowa	!	!	!	!	!	!	!	!	!	!	!	!	!LO:TX:t=P:problem=kreska pseudotaktowa
1AA	6	1fny	1a	1cc	.	.	.	.	.	.	.	.	.	.	1cc	1cc
*	*	*	*	*	*	*	*	*	*	*	*	*	*	*	*	*Xcol
=65-	=65-	=65-	=65-	=65-	=65-	=65-	=65-	=65-	=65-	=65-	=65-	=65-	=65-	=65-	=65-	=65-
!	!	!LO:TX:t=P:problem=kreska pseudotaktowa	!LO:TX:t=P:problem=kreska pseudotaktowa	!LO:TX:t=P:problem=kreska pseudotaktowa	!	!	!	!	!	!	!	!	!	!	!LO:TX:t=P:problem=kreska pseudotaktowa	!
0BB-X	.	0.d	0.f	0.b-X	0dd	0.ryy	0.ryy	0.ryy	0.ryy	0.ryy	0.ryy	0.ryy	0dd	Kÿ-	0.b-X	0dd
!LO:TX:t=P:problem=kreska pseudotaktowa	!	!	!	!	!	!	!	!	!	!	!	!	!	!	!	!LO:TX:t=P:problem=kreska pseudotaktowa
1GG	6 -	.	.	.	1b-X	.	.	.	.	.	.	.	1b-X	-ri-	.	1b-X
*	*	*	*custos:e	*	*	*	*	*	*	*	*	*	*	*	*	*
!	!	!	!LO:LB:g=original	!	!	!	!	!	!	!	!	!	!	!	!	!
=66-	=66-	=66-	=66-	=66-	=66-	=66-	=66-	=66-	=66-	=66-	=66-	=66-	=66-	=66-	=66-	=66-
!	!	!	!	!	!	!	!	!	!	!	!	!	!	!	!	!LO:SIC:v:s=0.cc
!	!	!	!	!	!LO:TX:t=P:problem=kreska pseudotaktowa	!	!	!	!	!	!	!	!LO:TX:t=P:problem=kreska pseudotaktowa	!	!	!LO:TX:t=P:problem=kreska pseudotaktowa
0AA	-	1.c	1.e	0aa	0.cc	0.ryy	0.ryy	0.ryy	0.ryy	0.ryy	0.ryy	0.ryy	0.cc	-e	0aa	0.dd
.	.	2B\	2d\	.	.	.	.	.	.	.	.	.	.	.	.	.
1FF	6	2d\	2f/	1aa	.	.	.	.	.	.	.	.	.	.	1aa	.
!	!	!LO:TX:t=P:problem=kreska pseudotaktowa	!LO:TX:t=P:problem=kreska pseudotaktowa	!	!	!	!	!	!	!	!	!	!	!	!	!
.	5	2c\	2e/	.	.	.	.	.	.	.	.	.	.	.	.	.
=67-	=67-	=67-	=67-	=67-	=67-	=67-	=67-	=67-	=67-	=67-	=67-	=67-	=67-	=67-	=67-	=67-
!	!	!LO:TX:t=P:problem=kreska pseudotaktowa	!LO:TX:t=P:problem=kreska pseudotaktowa	!LO:TX:t=P:problem=kreska pseudotaktowa	!	!	!	!	!	!	!	!	!	!	!LO:TX:t=P:problem=kreska pseudotaktowa	!
0GG	.	0.B	0.d	0.gg	1.bny	0.ryy	0.ryy	0.ryy	0.ryy	0.ryy	0.ryy	0.ryy	1.bny	Kÿ-	0.gg	1.bny
.	.	.	.	.	2a/	.	.	.	.	.	.	.	2a\	-ri-	.	2a/
!LO:TX:t=P:problem=kreska pseudotaktowa	!	!	!	!	!	!	!	!	!	!	!	!	!	!	!	!
1EE	6	.	.	.	2cc\	.	.	.	.	.	.	.	(2cc\	-e	.	2cc\
!	!	!	!	!	!LO:TX:t=P:problem=kreska pseudotaktowa	!	!	!	!	!	!	!	!	!	!	!LO:TX:t=P:problem=kreska pseudotaktowa
.	5	.	.	.	2b/	.	.	.	.	.	.	.	2b\	.	.	2b/
=68-	=68-	=68-	=68-	=68-	=68-	=68-	=68-	=68-	=68-	=68-	=68-	=68-	=68-	=68-	=68-	=68-
!	!	!	!	!	!	!	!	!	!	!	!	!	!LO:TX:t=P:problem=kreska pseudotaktowa	!	!	!LO:TX:t=P:problem=kreska pseudotaktowa
1FF	.	1.A	0f	1.cc	0.a	0.ryy	0.ryy	0.ryy	0.ryy	0.ryy	0.ryy	0.ryy	0.a)	.	1.cc	0.a
1F	.	.	.	.	.	.	.	.	.	.	.	.	.	.	.	.
.	.	2Gny/	.	2bny/	.	.	.	.	.	.	.	.	.	.	2bny/	.
!LO:TX:t=P:problem=kreska pseudotaktowa	!	!	!LO:TX:t=P:problem=kreska pseudotaktowa	!	!	!	!	!	!	!	!	!	!	!	!	!
1D	6 #	2B/	1f	2dd\	.	.	.	.	.	.	.	.	.	.	2dd\	.
!	!	!LO:TX:t=P:problem=kreska pseudotaktowa	!	!LO:TX:t=P:problem=kreska pseudotaktowa	!	!	!	!	!	!	!	!	!	!	!LO:TX:t=P:problem=kreska pseudotaktowa	!
.	5	2A/	.	2cc\	.	.	.	.	.	.	.	.	.	.	2cc\	.
!	!	!	!	!	!	!	!	!	!	!	!	!	!	!	!LO:LB:g=original	!
=69-	=69-	=69-	=69-	=69-	=69-	=69-	=69-	=69-	=69-	=69-	=69-	=69-	=69-	=69-	=69-	=69-
*	*	*	*	*	*	*	*	*	*	*	*	*	*	*ij	*	*
!	!	!LO:TX:t=P:problem=kreska pseudotaktowa	!LO:TX:t=P:problem=kreska pseudotaktowa	!	!	!	!	!	!	!	!	!	!	!	!	!
0E	-	0.G	0.e	0.b	0ee	0.ryy	0.ryy	0.ryy	0.ryy	0.ryy	0.ryy	0.ryy	0ee	Kÿ-	0.b	0ee
!LO:TX:t=P:problem=kreska pseudotaktowa	!	!	!	!	!LO:TX:t=P:problem=kreska pseudotaktowa	!	!	!	!	!	!	!	!	!	!	!LO:TX:t=P:problem=kreska pseudotaktowa
1C	6	.	.	.	1ee	.	.	.	.	.	.	.	1ee	-ri-	.	1ee
.	5	.	.	.	.	.	.	.	.	.	.	.	.	.	.	.
*	*	*	*	*	*custos:dd	*	*	*	*	*	*	*	*	*	*	*custos:dd
!	!	!	!	!	!LO:LB:g=original	!	!	!	!	!	!	!	!	!	!	!LO:LB:g=original
=70-	=70-	=70-	=70-	=70-	=70-	=70-	=70-	=70-	=70-	=70-	=70-	=70-	=70-	=70-	=70-	=70-
*	*	*	*	*	*	*	*	*	*	*	*	*	*	*	*	*col
!	!	!LO:TX:t=P:problem=kreska pseudotaktowa	!	!	!LO:TX:t=P:problem=kreska pseudotaktowa	!	!	!	!	!	!	!	!LO:TX:t=P:problem=kreska pseudotaktowa	!	!	!
0D	.	0.d	1.f	1.a	0.dd	0.ryy	0.ryy	0.ryy	0.ryy	0.ryy	0.ryy	0.ryy	0.dd	-e	1.a	0dd
*	*	*	*	*	*	*	*	*	*	*	*	*	*	*Xij	*	*
.	.	.	2e\	2g/	.	.	.	.	.	.	.	.	.	.	2g/	.
!	!	!	!	!	!	!	!	!	!	!	!	!	!	!	!	!LO:TX:t=P:problem=kreska pseudotaktowa
1BB-X	6	.	2g\	2b-X/	.	.	.	.	.	.	.	.	.	.	2b-X/	1dd
!	!	!	!LO:TX:t=P:problem=kreska pseudotaktowa	!LO:TX:t=P:problem=kreska pseudotaktowa	!	!	!	!	!	!	!	!	!	!	!LO:TX:t=P:problem=kreska pseudotaktowa	!
.	5	.	2f\	2a/	.	.	.	.	.	.	.	.	.	.	2a/	.
*	*	*	*	*	*	*	*	*	*	*	*	*	*	*	*	*Xcol
=71-	=71-	=71-	=71-	=71-	=71-	=71-	=71-	=71-	=71-	=71-	=71-	=71-	=71-	=71-	=71-	=71-
!	!	!LO:TX:t=P:problem=kreska pseudotaktowa	!	!	!	!	!	!	!	!	!	!	!	!	!	!
0C	.	0.c	0.e	0.g	1.g	0.ryy	0.ryy	0.ryy	0.ryy	0.ryy	0.ryy	0.ryy	1.g	Kÿ-	0.g	1.g
.	.	.	.	.	2f/	.	.	.	.	.	.	.	2f/	-ri-	.	2f/
!LO:TX:t=P:problem=kreska pseudotaktowa	!	!	!	!	!	!	!	!	!	!	!	!	!	!	!	!
1AA	6	.	.	.	2a/	.	.	.	.	.	.	.	2a\	-e	.	2a/
!	!	!	!	!	!LO:TX:t=P:problem=kreska pseudotaktowa	!	!	!	!	!	!	!	!LO:TX:t=P:problem=kreska pseudotaktowa	!	!	!LO:TX:t=P:problem=kreska pseudotaktowa
.	5	.	.	.	2g/	.	.	.	.	.	.	.	2g/	.	.	2g/
*	*	*custos:d	*	*	*	*	*	*	*	*	*	*	*	*	*	*
!	!	!LO:LB:g=original	!	!	!	!	!	!	!	!	!	!	!	!	!	!
=72-	=72-	=72-	=72-	=72-	=72-	=72-	=72-	=72-	=72-	=72-	=72-	=72-	=72-	=72-	=72-	=72-
1.BB-X	.	1.d	0f	0dd	1.f	0.ryy	0.ryy	0.ryy	0.ryy	0.ryy	0.ryy	0.ryy	1.f	.	0dd	1.f
2AA/	.	2c\	.	.	4g/	.	.	.	.	.	.	.	4g/	.	.	4g/
.	.	.	.	.	4a/	.	.	.	.	.	.	.	4a\	.	.	4a/
!LO:TX:t=P:problem=kreska pseudotaktowa	!	!LO:TX:t=P:problem=kreska pseudotaktowa	!LO:TX:t=P:problem=kreska pseudotaktowa	!	!LO:TX:t=P:problem=kreska pseudotaktowa	!	!	!	!	!	!	!	!LO:TX:t=P:problem=kreska pseudotaktowa	!	!	!LO:TX:t=P:problem=kreska pseudotaktowa
1GG	6 -	1B-X	1e	2dd\	1b-X	.	.	.	.	.	.	.	1b-X	.	2dd\	1b-X
!	!	!	!	!LO:TX:t=P:problem=kreska pseudotaktowa	!	!	!	!	!	!	!	!	!	!	!LO:TX:t=P:problem=kreska pseudotaktowa	!
.	.	.	.	2g/	.	.	.	.	.	.	.	.	.	.	2g/	.
!	!	!	!	!LO:LB:g=original	!	!	!	!	!	!	!	!	!	!	!	!
=73-	=73-	=73-	=73-	=73-	=73-	=73-	=73-	=73-	=73-	=73-	=73-	=73-	=73-	=73-	=73-	=73-
*col	*	*	*col	*col	*col	*	*	*	*	*	*	*	*col	*	*col	*col
1D	-	2F/	1d	1a	1a	0.ryy	0.ryy	0.ryy	0.ryy	0.ryy	0.ryy	0.ryy	1a	-e-	1a	1a
.	.	2G/	.	.	.	.	.	.	.	.	.	.	.	.	.	.
!LO:TX:t=P:problem=kreska pseudotaktowa	!	!LO:TX:t=P:problem=kreska pseudotaktowa	!LO:TX:t=P:problem=kreska pseudotaktowa	!	!	!	!	!	!	!	!	!	!LO:TX:t=P:problem=kreska pseudotaktowa	!	!	!
0AA	4 #	0A	0e	0a	0a	.	.	.	.	.	.	.	0a	-lei-	0a	0a
.	3	.	.	.	.	.	.	.	.	.	.	.	.	.	.	.
*Xcol	*	*	*Xcol	*Xcol	*Xcol	*	*	*	*	*	*	*	*Xcol	*	*Xcol	*Xcol
=74-	=74-	=74-	=74-	=74-	=74-	=74-	=74-	=74-	=74-	=74-	=74-	=74-	=74-	=74-	=74-	=74-
!LO:TX:t=P:problem=kreska pseudotaktowa	!	!LO:TX:t=P:problem=kreska pseudotaktowa	!	!	!	!	!	!	!	!	!	!	!LO:TX:t=P:problem=kreska pseudotaktowa	!	!	!LO:TX:t=P:problem=kreska pseudotaktowa
1D	#	1A	1d	1f	1a	0.ryy	0.ryy	0.ryy	0.ryy	0.ryy	0.ryy	0.ryy	1a	ſon,	1f	1a
1r	.	1r	1r	1r	1r	.	.	.	.	.	.	.	1r	.	1r	1r
1r	.	1r	1r	1r	1r	.	.	.	.	.	.	.	1r	.	1r	1r
!LO:LB:g=original	!	!	!	!	!	!	!	!	!	!	!	!	!LO:LB:g=original	!	!	!
=75-	=75-	=75-	=75-	=75-	=75-	=75-	=75-	=75-	=75-	=75-	=75-	=75-	=75-	=75-	=75-	=75-
*M2/1	*	*M2/1	*M2/1	*M2/1	*M2/1	*	*	*	*	*	*	*	*M2/1	*	*M2/1	*M2/1
*met(C)	*	*met(C)	*met(C)	*met(C.)	*met(C)	*	*	*	*	*	*	*	*met(C)	*	*met(C.)	*met(C)
!	!	!	!	!	!	!	!	!	!	!	!	!	!	!	!	!LO:TX:t=P:problem=kreska pseudotaktowa, między nutą a kropką
2D/	#	4.A/	2.d/	2.dd\	1.dd	1ryy	1ryy	1ryy	1ryy	1ryy	1ryy	1ryy	1dd	Kÿ-	2.dd\	1.dd
.	.	8A/	.	.	.	.	.	.	.	.	.	.	.	.	.	.
!	!	!LO:TX:t=P:problem=kreska pseudotaktowa	!	!	!	!	!	!	!	!	!	!	!	!	!	!
2BBny/	#	2d\	.	.	.	.	.	.	.	.	.	.	.	.	.	.
!	!	!	!	!LO:TX:t=P:problem=przekreślona synkopowana wartość	!	!	!	!	!	!	!	!	!	!	!LO:TX:t=P:problem=przekreślona synkopowana wartość	!
.	.	.	4f#X\	2bny/	.	.	.	.	.	.	.	.	.	.	2bny/	.
=76-	=76-	=76-	=76-	=76-	=76-	=76-	=76-	=76-	=76-	=76-	=76-	=76-	=76-	=76-	=76-	=76-
2E\	7 #	8d\L	2g#X/	.	.	0ryy	0ryy	0ryy	0ryy	0ryy	0ryy	0ryy	2dd\	-ri-	.	.
.	.	8c\	.	.	.	.	.	.	.	.	.	.	.	.	.	.
.	.	8Bny\	.	[4ee\	.	.	.	.	.	.	.	.	.	.	[4ee\	.
.	.	16A\L	.	.	.	.	.	.	.	.	.	.	.	.	.	.
.	.	16B\JJ	.	.	.	.	.	.	.	.	.	.	.	.	.	.
!LO:TX:t=P:problem=kreska pseudotaktowa	!	!	!LO:TX:t=P:problem=kreska pseudotaktowa	!	!LO:TX:t=P:problem=kreska pseudotaktowa	!	!	!	!	!	!	!	!LO:TX:t=P:problem=przekreślona synkopowana wartość	!	!	!LO:TX:t=P:problem=kreska pseudotaktowa
2AA/	.	4.c\	2e/	8eeL]	[2cc\	.	.	.	.	.	.	.	1cc\	-e	8eeL]	[2cc\
.	.	.	.	8dd\J	.	.	.	.	.	.	.	.	.	.	8dd\J	.
.	.	.	.	8cc\L	.	.	.	.	.	.	.	.	.	.	8cc\L	.
!	!	!LO:TX:t=P:problem=kreska pseudotaktowa	!	!	!	!	!	!	!	!	!	!	!	!	!	!
.	.	8B\	.	16b\L	.	.	.	.	.	.	.	.	.	.	16b\L	.
!	!	!	!	!LO:TX:t=P:problem=kreska pseudotaktowa	!	!	!	!	!	!	!	!	!	!	!LO:TX:t=P:problem=kreska pseudotaktowa	!
.	.	.	.	16cc\JJ	.	.	.	.	.	.	.	.	.	.	16cc\JJ	.
2FF#X/	6 5	2A/	2a/	4dd\	2cc]	.	.	.	.	.	.	.	.	.	4dd\	2cc]
.	.	.	.	4d/	.	.	.	.	.	.	.	.	.	.	4d/	.
*	*	*	*	*	*	*	*	*	*	*	*	*	*	*	*custos:g	*
!	!	!LO:TX:t=P:problem=kreska pseudotaktowa	!	!	!	!	!	!	!	!	!	!	!LO:TX:t=P:problem=kreska pseudotaktowa	!	!	!LO:TX:t=P:problem=kreska pseudotaktowa
!	!	!	!	!	!	!	!	!	!	!	!	!	!	!	!LO:LB:g=original	!
2GG/	5	2B/	4gny\	8g/L	2bny/	.	.	.	.	.	.	.	2bny\	e-	8g/L	2bny/
.	.	.	.	8f/	.	.	.	.	.	.	.	.	.	.	8f/	.
!	!	!	!LO:TX:t=P:problem=kreska pseudotaktowa	!	!	!	!	!	!	!	!	!	!	!	!	!
.	.	.	4d/	8e/	.	.	.	.	.	.	.	.	.	.	8e/	.
!	!	!	!	!LO:TX:t=P:problem=kreska pseudotaktowa	!	!	!	!	!	!	!	!	!	!	!	!
.	.	.	.	8d/J	.	.	.	.	.	.	.	.	.	.	8d/J	.
=77-	=77-	=77-	=77-	=77-	=77-	=77-	=77-	=77-	=77-	=77-	=77-	=77-	=77-	=77-	=77-	=77-
!	!	!	!	!	!	!	!	!	!	!	!	!	!	!	!	!LO:TX:t=P:problem=kreska pseudotaktowa
0AA	7 3	2c#X/	2e\	2c#X/	0a	0ryy	0ryy	0ryy	0ryy	0ryy	0ryy	0ryy	0a	-lei-	2c#X/	0a
!	!	!LO:TX:t=P:problem=kreska pseudotaktowa	!	!	!	!	!	!	!	!	!	!	!	!	!	!
.	.	2A/	2a/	4c#/	.	.	.	.	.	.	.	.	.	.	4c#/	.
!	!	!	!	!LO:TX:t=P:problem=kreska pseudotaktowa	!	!	!	!	!	!	!	!	!	!	!LO:TX:t=P:problem=kreska pseudotaktowa	!
.	.	.	.	4a/	.	.	.	.	.	.	.	.	.	.	4a/	.
!	!	!	!	!	!	!	!	!	!	!	!	!	!LO:TX:t=P:problem=kreska pseudotaktowa	!	!LO:TX:t=P:problem=kreska pseudotaktowa	!
.	.	8A\L	1a	1a	.	.	.	.	.	.	.	.	.	.	1a	.
.	.	8B\	.	.	.	.	.	.	.	.	.	.	.	.	.	.
!	!	!LO:SIC:v:s=8c#	!	!	!	!	!	!	!	!	!	!	!	!	!	!
.	.	8cny\	.	.	.	.	.	.	.	.	.	.	.	.	.	.
.	.	8d\J	.	.	.	.	.	.	.	.	.	.	.	.	.	.
.	6 4 #	4e\	.	.	.	.	.	.	.	.	.	.	.	.	.	.
.	5 3	4A/	.	.	.	.	.	.	.	.	.	.	.	.	.	.
=78-	=78-	=78-	=78-	=78-	=78-	=78-	=78-	=78-	=78-	=78-	=78-	=78-	=78-	=78-	=78-	=78-
0Dl;;	#	0dl;;	0f#Xl;;	0al;;	0al;;	0ryy	0ryy	0ryy	0ryy	0ryy	0ryy	0ryy	0al;;	-ſon.	0al;;	0al;;
==	==	==	==	==	==	==	==	==	==	==	==	==	==	==	==	==
*-	*-	*-	*-	*-	*-	*-	*-	*-	*-	*-	*-	*-	*-	*-	*-	*-
!!!system-decoration: [(bras)][(g1)][(g2)][(str)]<klav>
!!!RDF**kern: < = below
!!!RDF**kern: l = terminal long
!!!ENC: Marta Opryszak
!!!END: 2022-06-04
!!!ENC: Andrzej Kubiczek
!!!END: 2022-08-19
